; -- terraForge G-code ------------------------------------------
; Machine  : <normalized>
; Bed      : 220 x 200 mm
; Origin   : bottom-left
; Optimised: yes (nearest-neighbour)
; Joined   : no
; Lift end : yes
; Ret home : no
; Pen delay: 50 ms
; Generated: <normalized>
; ---------------------------------------------------------------
G90      ; Absolute coordinates
G21      ; Units: mm
M5 ; Pen up

; -- Color: #000000 (2 objects) --
; -- Color: #0072a4 (73 objects) --
; -- Color: #ebebeb (88 objects) --
; -- Color: #ff1616 (72 objects) --
; -- Optimised path (156 subpaths) -----------
G0 X8.480 Y0.000 ; Rapid travel
F3000
M3 S1000 ; Pen down
G4 P0.05 ; Pen settle delay
G1 X8.480 Y72.999
M5 ; Pen up

G0 X8.480 Y72.999 ; Rapid travel
F3000
M3 S1000 ; Pen down
G4 P0.05 ; Pen settle delay
G1 X139.730 Y72.999
G1 X139.730 Y0.000
M5 ; Pen up

G0 X138.315 Y72.999 ; Rapid travel
F3000
M3 S1000 ; Pen down
G4 P0.05 ; Pen settle delay
G1 X139.730 Y71.584
M5 ; Pen up

G0 X135.487 Y72.999 ; Rapid travel
F3000
M3 S1000 ; Pen down
G4 P0.05 ; Pen settle delay
G1 X139.730 Y68.756
M5 ; Pen up

G0 X132.659 Y72.999 ; Rapid travel
F3000
M3 S1000 ; Pen down
G4 P0.05 ; Pen settle delay
G1 X139.730 Y65.928
M5 ; Pen up

G0 X129.830 Y72.999 ; Rapid travel
F3000
M3 S1000 ; Pen down
G4 P0.05 ; Pen settle delay
G1 X139.730 Y63.099
M5 ; Pen up

G0 X127.002 Y72.999 ; Rapid travel
F3000
M3 S1000 ; Pen down
G4 P0.05 ; Pen settle delay
G1 X139.730 Y60.270
M5 ; Pen up

G0 X124.173 Y72.999 ; Rapid travel
F3000
M3 S1000 ; Pen down
G4 P0.05 ; Pen settle delay
G1 X139.730 Y57.442
M5 ; Pen up

G0 X121.345 Y72.999 ; Rapid travel
F3000
M3 S1000 ; Pen down
G4 P0.05 ; Pen settle delay
G1 X139.730 Y54.614
M5 ; Pen up

G0 X118.516 Y72.999 ; Rapid travel
F3000
M3 S1000 ; Pen down
G4 P0.05 ; Pen settle delay
G1 X139.730 Y51.785
M5 ; Pen up

G0 X115.688 Y72.999 ; Rapid travel
F3000
M3 S1000 ; Pen down
G4 P0.05 ; Pen settle delay
G1 X139.730 Y48.957
M5 ; Pen up

G0 X112.860 Y72.999 ; Rapid travel
F3000
M3 S1000 ; Pen down
G4 P0.05 ; Pen settle delay
G1 X139.730 Y46.129
M5 ; Pen up

G0 X110.031 Y72.999 ; Rapid travel
F3000
M3 S1000 ; Pen down
G4 P0.05 ; Pen settle delay
G1 X139.730 Y43.300
M5 ; Pen up

G0 X107.203 Y72.999 ; Rapid travel
F3000
M3 S1000 ; Pen down
G4 P0.05 ; Pen settle delay
G1 X139.730 Y40.472
M5 ; Pen up

G0 X104.374 Y72.999 ; Rapid travel
F3000
M3 S1000 ; Pen down
G4 P0.05 ; Pen settle delay
G1 X139.730 Y37.643
M5 ; Pen up

G0 X101.546 Y72.999 ; Rapid travel
F3000
M3 S1000 ; Pen down
G4 P0.05 ; Pen settle delay
G1 X139.730 Y34.815
M5 ; Pen up

G0 X98.717 Y72.999 ; Rapid travel
F3000
M3 S1000 ; Pen down
G4 P0.05 ; Pen settle delay
G1 X139.730 Y31.986
M5 ; Pen up

G0 X95.889 Y72.999 ; Rapid travel
F3000
M3 S1000 ; Pen down
G4 P0.05 ; Pen settle delay
G1 X139.730 Y29.158
M5 ; Pen up

G0 X93.061 Y72.999 ; Rapid travel
F3000
M3 S1000 ; Pen down
G4 P0.05 ; Pen settle delay
G1 X139.730 Y26.329
M5 ; Pen up

G0 X90.232 Y72.999 ; Rapid travel
F3000
M3 S1000 ; Pen down
G4 P0.05 ; Pen settle delay
G1 X139.730 Y23.501
M5 ; Pen up

G0 X87.404 Y72.999 ; Rapid travel
F3000
M3 S1000 ; Pen down
G4 P0.05 ; Pen settle delay
G1 X139.730 Y20.673
M5 ; Pen up

G0 X84.575 Y72.999 ; Rapid travel
F3000
M3 S1000 ; Pen down
G4 P0.05 ; Pen settle delay
G1 X139.730 Y17.844
M5 ; Pen up

G0 X81.747 Y72.999 ; Rapid travel
F3000
M3 S1000 ; Pen down
G4 P0.05 ; Pen settle delay
G1 X139.730 Y15.016
M5 ; Pen up

G0 X78.918 Y72.999 ; Rapid travel
F3000
M3 S1000 ; Pen down
G4 P0.05 ; Pen settle delay
G1 X139.730 Y12.187
M5 ; Pen up

G0 X76.090 Y72.999 ; Rapid travel
F3000
M3 S1000 ; Pen down
G4 P0.05 ; Pen settle delay
G1 X139.730 Y9.359
M5 ; Pen up

G0 X73.262 Y72.999 ; Rapid travel
F3000
M3 S1000 ; Pen down
G4 P0.05 ; Pen settle delay
G1 X139.730 Y6.530
M5 ; Pen up

G0 X70.433 Y72.999 ; Rapid travel
F3000
M3 S1000 ; Pen down
G4 P0.05 ; Pen settle delay
G1 X139.730 Y3.702
M5 ; Pen up

G0 X67.605 Y72.999 ; Rapid travel
F3000
M3 S1000 ; Pen down
G4 P0.05 ; Pen settle delay
G1 X139.730 Y0.874
M5 ; Pen up

G0 X64.776 Y72.999 ; Rapid travel
F3000
M3 S1000 ; Pen down
G4 P0.05 ; Pen settle delay
G1 X137.775 Y0.000
M5 ; Pen up

G0 X61.948 Y72.999 ; Rapid travel
F3000
M3 S1000 ; Pen down
G4 P0.05 ; Pen settle delay
G1 X134.946 Y0.000
M5 ; Pen up

G0 X59.120 Y72.999 ; Rapid travel
F3000
M3 S1000 ; Pen down
G4 P0.05 ; Pen settle delay
G1 X132.118 Y0.000
M5 ; Pen up

G0 X56.291 Y72.999 ; Rapid travel
F3000
M3 S1000 ; Pen down
G4 P0.05 ; Pen settle delay
G1 X129.290 Y0.000
M5 ; Pen up

G0 X53.463 Y72.999 ; Rapid travel
F3000
M3 S1000 ; Pen down
G4 P0.05 ; Pen settle delay
G1 X126.461 Y0.000
M5 ; Pen up

G0 X50.634 Y72.999 ; Rapid travel
F3000
M3 S1000 ; Pen down
G4 P0.05 ; Pen settle delay
G1 X123.633 Y0.000
M5 ; Pen up

G0 X47.806 Y72.999 ; Rapid travel
F3000
M3 S1000 ; Pen down
G4 P0.05 ; Pen settle delay
G1 X120.804 Y0.000
M5 ; Pen up

G0 X44.977 Y72.999 ; Rapid travel
F3000
M3 S1000 ; Pen down
G4 P0.05 ; Pen settle delay
G1 X117.976 Y0.000
M5 ; Pen up

G0 X42.149 Y72.999 ; Rapid travel
F3000
M3 S1000 ; Pen down
G4 P0.05 ; Pen settle delay
G1 X115.147 Y0.000
M5 ; Pen up

G0 X39.321 Y72.999 ; Rapid travel
F3000
M3 S1000 ; Pen down
G4 P0.05 ; Pen settle delay
G1 X112.319 Y0.000
M5 ; Pen up

G0 X8.480 Y2.016 ; Rapid travel
F3000
M3 S1000 ; Pen down
G4 P0.05 ; Pen settle delay
G1 X10.496 Y0.000
M5 ; Pen up

G0 X8.480 Y4.845 ; Rapid travel
F3000
M3 S1000 ; Pen down
G4 P0.05 ; Pen settle delay
G1 X13.324 Y0.000
M5 ; Pen up

G0 X8.480 Y7.673 ; Rapid travel
F3000
M3 S1000 ; Pen down
G4 P0.05 ; Pen settle delay
G1 X16.153 Y0.000
M5 ; Pen up

G0 X8.480 Y10.501 ; Rapid travel
F3000
M3 S1000 ; Pen down
G4 P0.05 ; Pen settle delay
G1 X18.981 Y0.000
M5 ; Pen up

G0 X8.480 Y13.330 ; Rapid travel
F3000
M3 S1000 ; Pen down
G4 P0.05 ; Pen settle delay
G1 X21.809 Y0.000
M5 ; Pen up

G0 X8.480 Y16.158 ; Rapid travel
F3000
M3 S1000 ; Pen down
G4 P0.05 ; Pen settle delay
G1 X24.638 Y0.000
M5 ; Pen up

G0 X8.480 Y18.986 ; Rapid travel
F3000
M3 S1000 ; Pen down
G4 P0.05 ; Pen settle delay
G1 X27.466 Y0.000
M5 ; Pen up

G0 X8.480 Y21.815 ; Rapid travel
F3000
M3 S1000 ; Pen down
G4 P0.05 ; Pen settle delay
G1 X30.295 Y0.000
M5 ; Pen up

G0 X8.480 Y24.643 ; Rapid travel
F3000
M3 S1000 ; Pen down
G4 P0.05 ; Pen settle delay
G1 X33.123 Y0.000
M5 ; Pen up

G0 X8.480 Y27.472 ; Rapid travel
F3000
M3 S1000 ; Pen down
G4 P0.05 ; Pen settle delay
G1 X35.952 Y0.000
M5 ; Pen up

G0 X8.480 Y30.300 ; Rapid travel
F3000
M3 S1000 ; Pen down
G4 P0.05 ; Pen settle delay
G1 X38.780 Y0.000
M5 ; Pen up

G0 X8.480 Y33.129 ; Rapid travel
F3000
M3 S1000 ; Pen down
G4 P0.05 ; Pen settle delay
G1 X41.608 Y0.000
M5 ; Pen up

G0 X8.480 Y35.957 ; Rapid travel
F3000
M3 S1000 ; Pen down
G4 P0.05 ; Pen settle delay
G1 X44.437 Y0.000
M5 ; Pen up

G0 X8.480 Y38.786 ; Rapid travel
F3000
M3 S1000 ; Pen down
G4 P0.05 ; Pen settle delay
G1 X47.265 Y0.000
M5 ; Pen up

G0 X8.480 Y41.614 ; Rapid travel
F3000
M3 S1000 ; Pen down
G4 P0.05 ; Pen settle delay
G1 X50.094 Y0.000
M5 ; Pen up

G0 X8.480 Y44.442 ; Rapid travel
F3000
M3 S1000 ; Pen down
G4 P0.05 ; Pen settle delay
G1 X52.922 Y0.000
M5 ; Pen up

G0 X8.480 Y47.271 ; Rapid travel
F3000
M3 S1000 ; Pen down
G4 P0.05 ; Pen settle delay
G1 X55.750 Y0.000
M5 ; Pen up

G0 X8.480 Y50.099 ; Rapid travel
F3000
M3 S1000 ; Pen down
G4 P0.05 ; Pen settle delay
G1 X58.579 Y0.000
M5 ; Pen up

G0 X8.480 Y52.928 ; Rapid travel
F3000
M3 S1000 ; Pen down
G4 P0.05 ; Pen settle delay
G1 X61.407 Y0.000
M5 ; Pen up

G0 X8.480 Y55.756 ; Rapid travel
F3000
M3 S1000 ; Pen down
G4 P0.05 ; Pen settle delay
G1 X64.236 Y0.000
M5 ; Pen up

G0 X36.492 Y72.999 ; Rapid travel
F3000
M3 S1000 ; Pen down
G4 P0.05 ; Pen settle delay
G1 X109.491 Y0.000
M5 ; Pen up

G0 X33.664 Y72.999 ; Rapid travel
F3000
M3 S1000 ; Pen down
G4 P0.05 ; Pen settle delay
G1 X106.662 Y0.000
M5 ; Pen up

G0 X30.835 Y72.999 ; Rapid travel
F3000
M3 S1000 ; Pen down
G4 P0.05 ; Pen settle delay
G1 X103.834 Y0.000
M5 ; Pen up

G0 X28.007 Y72.999 ; Rapid travel
F3000
M3 S1000 ; Pen down
G4 P0.05 ; Pen settle delay
G1 X101.005 Y0.000
M5 ; Pen up

G0 X25.178 Y72.999 ; Rapid travel
F3000
M3 S1000 ; Pen down
G4 P0.05 ; Pen settle delay
G1 X98.177 Y0.000
M5 ; Pen up

G0 X22.350 Y72.999 ; Rapid travel
F3000
M3 S1000 ; Pen down
G4 P0.05 ; Pen settle delay
G1 X95.348 Y0.000
M5 ; Pen up

G0 X8.480 Y58.585 ; Rapid travel
F3000
M3 S1000 ; Pen down
G4 P0.05 ; Pen settle delay
G1 X67.064 Y0.000
M5 ; Pen up

G0 X8.480 Y61.413 ; Rapid travel
F3000
M3 S1000 ; Pen down
G4 P0.05 ; Pen settle delay
G1 X69.893 Y0.000
M5 ; Pen up

G0 X19.521 Y72.999 ; Rapid travel
F3000
M3 S1000 ; Pen down
G4 P0.05 ; Pen settle delay
G1 X92.520 Y0.000
M5 ; Pen up

G0 X16.693 Y72.999 ; Rapid travel
F3000
M3 S1000 ; Pen down
G4 P0.05 ; Pen settle delay
G1 X89.692 Y0.000
M5 ; Pen up

G0 X8.480 Y64.241 ; Rapid travel
F3000
M3 S1000 ; Pen down
G4 P0.05 ; Pen settle delay
G1 X72.721 Y0.000
M5 ; Pen up

G0 X8.480 Y67.070 ; Rapid travel
F3000
M3 S1000 ; Pen down
G4 P0.05 ; Pen settle delay
G1 X75.549 Y0.000
M5 ; Pen up

G0 X13.865 Y72.999 ; Rapid travel
F3000
M3 S1000 ; Pen down
G4 P0.05 ; Pen settle delay
G1 X86.863 Y0.000
M5 ; Pen up

G0 X8.480 Y69.898 ; Rapid travel
F3000
M3 S1000 ; Pen down
G4 P0.05 ; Pen settle delay
G1 X78.378 Y0.000
M5 ; Pen up

G0 X11.036 Y72.999 ; Rapid travel
F3000
M3 S1000 ; Pen down
G4 P0.05 ; Pen settle delay
G1 X84.035 Y0.000
M5 ; Pen up

G0 X8.480 Y72.727 ; Rapid travel
F3000
M3 S1000 ; Pen down
G4 P0.05 ; Pen settle delay
G1 X81.206 Y0.000
M5 ; Pen up

G0 X34.656 Y135.202 ; Rapid travel
F3000
M3 S1000 ; Pen down
G4 P0.05 ; Pen settle delay
G1 X36.028 Y133.830
M5 ; Pen up

G0 X34.656 Y138.030 ; Rapid travel
F3000
M3 S1000 ; Pen down
G4 P0.05 ; Pen settle delay
G1 X38.856 Y133.830
M5 ; Pen up

G0 X34.656 Y140.859 ; Rapid travel
F3000
M3 S1000 ; Pen down
G4 P0.05 ; Pen settle delay
G1 X41.684 Y133.830
M5 ; Pen up

G0 X34.656 Y143.687 ; Rapid travel
F3000
M3 S1000 ; Pen down
G4 P0.05 ; Pen settle delay
G1 X44.513 Y133.830
M5 ; Pen up

G0 X34.656 Y146.516 ; Rapid travel
F3000
M3 S1000 ; Pen down
G4 P0.05 ; Pen settle delay
G1 X47.341 Y133.830
M5 ; Pen up

G0 X34.656 Y149.344 ; Rapid travel
F3000
M3 S1000 ; Pen down
G4 P0.05 ; Pen settle delay
G1 X50.170 Y133.830
M5 ; Pen up

G0 X34.656 Y152.172 ; Rapid travel
F3000
M3 S1000 ; Pen down
G4 P0.05 ; Pen settle delay
G1 X52.998 Y133.830
M5 ; Pen up

G0 X34.656 Y155.001 ; Rapid travel
F3000
M3 S1000 ; Pen down
G4 P0.05 ; Pen settle delay
G1 X55.826 Y133.830
M5 ; Pen up

G0 X34.656 Y157.830 ; Rapid travel
F3000
M3 S1000 ; Pen down
G4 P0.05 ; Pen settle delay
G1 X58.655 Y133.830
M5 ; Pen up

G0 X34.656 Y160.658 ; Rapid travel
F3000
M3 S1000 ; Pen down
G4 P0.05 ; Pen settle delay
G1 X61.483 Y133.830
M5 ; Pen up

G0 X34.656 Y163.486 ; Rapid travel
F3000
M3 S1000 ; Pen down
G4 P0.05 ; Pen settle delay
G1 X64.312 Y133.830
M5 ; Pen up

G0 X34.656 Y166.315 ; Rapid travel
F3000
M3 S1000 ; Pen down
G4 P0.05 ; Pen settle delay
G1 X67.140 Y133.830
M5 ; Pen up

G0 X34.656 Y169.143 ; Rapid travel
F3000
M3 S1000 ; Pen down
G4 P0.05 ; Pen settle delay
G1 X69.969 Y133.830
M5 ; Pen up

G0 X34.656 Y171.971 ; Rapid travel
F3000
M3 S1000 ; Pen down
G4 P0.05 ; Pen settle delay
G1 X72.797 Y133.830
M5 ; Pen up

G0 X34.656 Y174.800 ; Rapid travel
F3000
M3 S1000 ; Pen down
G4 P0.05 ; Pen settle delay
G1 X75.625 Y133.830
M5 ; Pen up

G0 X34.656 Y177.628 ; Rapid travel
F3000
M3 S1000 ; Pen down
G4 P0.05 ; Pen settle delay
G1 X78.454 Y133.830
M5 ; Pen up

G0 X34.656 Y180.457 ; Rapid travel
F3000
M3 S1000 ; Pen down
G4 P0.05 ; Pen settle delay
G1 X81.282 Y133.830
M5 ; Pen up

G0 X80.166 Y200.000 ; Rapid travel
F3000
M3 S1000 ; Pen down
G4 P0.05 ; Pen settle delay
G1 X146.336 Y133.830
M5 ; Pen up

G0 X145.220 Y200.000 ; Rapid travel
F3000
M3 S1000 ; Pen down
G4 P0.05 ; Pen settle delay
G1 X201.668 Y143.553
M5 ; Pen up

G0 X198.960 Y200.000 ; Rapid travel
F3000
M3 S1000 ; Pen down
G4 P0.05 ; Pen settle delay
G1 X201.668 Y197.293
M5 ; Pen up

G0 X196.132 Y200.000 ; Rapid travel
F3000
M3 S1000 ; Pen down
G4 P0.05 ; Pen settle delay
G1 X201.668 Y194.464
M5 ; Pen up

G0 X193.304 Y200.000 ; Rapid travel
F3000
M3 S1000 ; Pen down
G4 P0.05 ; Pen settle delay
G1 X201.668 Y191.636
M5 ; Pen up

G0 X190.475 Y200.000 ; Rapid travel
F3000
M3 S1000 ; Pen down
G4 P0.05 ; Pen settle delay
G1 X201.668 Y188.807
M5 ; Pen up

G0 X187.647 Y200.000 ; Rapid travel
F3000
M3 S1000 ; Pen down
G4 P0.05 ; Pen settle delay
G1 X201.668 Y185.979
M5 ; Pen up

G0 X184.818 Y200.000 ; Rapid travel
F3000
M3 S1000 ; Pen down
G4 P0.05 ; Pen settle delay
G1 X201.668 Y183.151
M5 ; Pen up

G0 X181.990 Y200.000 ; Rapid travel
F3000
M3 S1000 ; Pen down
G4 P0.05 ; Pen settle delay
G1 X201.668 Y180.322
M5 ; Pen up

G0 X179.161 Y200.000 ; Rapid travel
F3000
M3 S1000 ; Pen down
G4 P0.05 ; Pen settle delay
G1 X201.668 Y177.494
M5 ; Pen up

G0 X176.333 Y200.000 ; Rapid travel
F3000
M3 S1000 ; Pen down
G4 P0.05 ; Pen settle delay
G1 X201.668 Y174.665
M5 ; Pen up

G0 X173.505 Y200.000 ; Rapid travel
F3000
M3 S1000 ; Pen down
G4 P0.05 ; Pen settle delay
G1 X201.668 Y171.837
M5 ; Pen up

G0 X170.676 Y200.000 ; Rapid travel
F3000
M3 S1000 ; Pen down
G4 P0.05 ; Pen settle delay
G1 X201.668 Y169.008
M5 ; Pen up

G0 X167.848 Y200.000 ; Rapid travel
F3000
M3 S1000 ; Pen down
G4 P0.05 ; Pen settle delay
G1 X201.668 Y166.180
M5 ; Pen up

G0 X165.019 Y200.000 ; Rapid travel
F3000
M3 S1000 ; Pen down
G4 P0.05 ; Pen settle delay
G1 X201.668 Y163.352
M5 ; Pen up

G0 X162.191 Y200.000 ; Rapid travel
F3000
M3 S1000 ; Pen down
G4 P0.05 ; Pen settle delay
G1 X201.668 Y160.523
M5 ; Pen up

G0 X159.363 Y200.000 ; Rapid travel
F3000
M3 S1000 ; Pen down
G4 P0.05 ; Pen settle delay
G1 X201.668 Y157.695
M5 ; Pen up

G0 X156.534 Y200.000 ; Rapid travel
F3000
M3 S1000 ; Pen down
G4 P0.05 ; Pen settle delay
G1 X201.668 Y154.866
M5 ; Pen up

G0 X153.706 Y200.000 ; Rapid travel
F3000
M3 S1000 ; Pen down
G4 P0.05 ; Pen settle delay
G1 X201.668 Y152.038
M5 ; Pen up

G0 X150.877 Y200.000 ; Rapid travel
F3000
M3 S1000 ; Pen down
G4 P0.05 ; Pen settle delay
G1 X201.668 Y149.209
M5 ; Pen up

G0 X148.049 Y200.000 ; Rapid travel
F3000
M3 S1000 ; Pen down
G4 P0.05 ; Pen settle delay
G1 X201.668 Y146.381
M5 ; Pen up

G0 X142.392 Y200.000 ; Rapid travel
F3000
M3 S1000 ; Pen down
G4 P0.05 ; Pen settle delay
G1 X201.668 Y140.724
M5 ; Pen up

G0 X139.564 Y200.000 ; Rapid travel
F3000
M3 S1000 ; Pen down
G4 P0.05 ; Pen settle delay
G1 X201.668 Y137.896
M5 ; Pen up

G0 X136.735 Y200.000 ; Rapid travel
F3000
M3 S1000 ; Pen down
G4 P0.05 ; Pen settle delay
G1 X201.668 Y135.067
M5 ; Pen up

G0 X133.907 Y200.000 ; Rapid travel
F3000
M3 S1000 ; Pen down
G4 P0.05 ; Pen settle delay
G1 X200.076 Y133.830
M5 ; Pen up

G0 X131.078 Y200.000 ; Rapid travel
F3000
M3 S1000 ; Pen down
G4 P0.05 ; Pen settle delay
G1 X197.248 Y133.830
M5 ; Pen up

G0 X128.250 Y200.000 ; Rapid travel
F3000
M3 S1000 ; Pen down
G4 P0.05 ; Pen settle delay
G1 X194.419 Y133.830
M5 ; Pen up

G0 X125.421 Y200.000 ; Rapid travel
F3000
M3 S1000 ; Pen down
G4 P0.05 ; Pen settle delay
G1 X191.591 Y133.830
M5 ; Pen up

G0 X122.593 Y200.000 ; Rapid travel
F3000
M3 S1000 ; Pen down
G4 P0.05 ; Pen settle delay
G1 X188.762 Y133.830
M5 ; Pen up

G0 X119.765 Y200.000 ; Rapid travel
F3000
M3 S1000 ; Pen down
G4 P0.05 ; Pen settle delay
G1 X185.934 Y133.830
M5 ; Pen up

G0 X116.936 Y200.000 ; Rapid travel
F3000
M3 S1000 ; Pen down
G4 P0.05 ; Pen settle delay
G1 X183.106 Y133.830
M5 ; Pen up

G0 X114.108 Y200.000 ; Rapid travel
F3000
M3 S1000 ; Pen down
G4 P0.05 ; Pen settle delay
G1 X180.277 Y133.830
M5 ; Pen up

G0 X111.279 Y200.000 ; Rapid travel
F3000
M3 S1000 ; Pen down
G4 P0.05 ; Pen settle delay
G1 X177.449 Y133.830
M5 ; Pen up

G0 X108.451 Y200.000 ; Rapid travel
F3000
M3 S1000 ; Pen down
G4 P0.05 ; Pen settle delay
G1 X174.620 Y133.830
M5 ; Pen up

G0 X105.622 Y200.000 ; Rapid travel
F3000
M3 S1000 ; Pen down
G4 P0.05 ; Pen settle delay
G1 X171.792 Y133.830
M5 ; Pen up

G0 X102.794 Y200.000 ; Rapid travel
F3000
M3 S1000 ; Pen down
G4 P0.05 ; Pen settle delay
G1 X168.963 Y133.830
M5 ; Pen up

G0 X99.966 Y200.000 ; Rapid travel
F3000
M3 S1000 ; Pen down
G4 P0.05 ; Pen settle delay
G1 X166.135 Y133.830
M5 ; Pen up

G0 X97.137 Y200.000 ; Rapid travel
F3000
M3 S1000 ; Pen down
G4 P0.05 ; Pen settle delay
G1 X163.307 Y133.830
M5 ; Pen up

G0 X94.309 Y200.000 ; Rapid travel
F3000
M3 S1000 ; Pen down
G4 P0.05 ; Pen settle delay
G1 X160.478 Y133.830
M5 ; Pen up

G0 X91.480 Y200.000 ; Rapid travel
F3000
M3 S1000 ; Pen down
G4 P0.05 ; Pen settle delay
G1 X157.650 Y133.830
M5 ; Pen up

G0 X88.652 Y200.000 ; Rapid travel
F3000
M3 S1000 ; Pen down
G4 P0.05 ; Pen settle delay
G1 X154.821 Y133.830
M5 ; Pen up

G0 X85.824 Y200.000 ; Rapid travel
F3000
M3 S1000 ; Pen down
G4 P0.05 ; Pen settle delay
G1 X151.993 Y133.830
M5 ; Pen up

G0 X82.995 Y200.000 ; Rapid travel
F3000
M3 S1000 ; Pen down
G4 P0.05 ; Pen settle delay
G1 X149.164 Y133.830
M5 ; Pen up

G0 X77.338 Y200.000 ; Rapid travel
F3000
M3 S1000 ; Pen down
G4 P0.05 ; Pen settle delay
G1 X143.508 Y133.830
M5 ; Pen up

G0 X74.510 Y200.000 ; Rapid travel
F3000
M3 S1000 ; Pen down
G4 P0.05 ; Pen settle delay
G1 X140.679 Y133.830
M5 ; Pen up

G0 X71.681 Y200.000 ; Rapid travel
F3000
M3 S1000 ; Pen down
G4 P0.05 ; Pen settle delay
G1 X137.851 Y133.830
M5 ; Pen up

G0 X68.853 Y200.000 ; Rapid travel
F3000
M3 S1000 ; Pen down
G4 P0.05 ; Pen settle delay
G1 X135.022 Y133.830
M5 ; Pen up

G0 X66.025 Y200.000 ; Rapid travel
F3000
M3 S1000 ; Pen down
G4 P0.05 ; Pen settle delay
G1 X132.194 Y133.830
M5 ; Pen up

G0 X63.196 Y200.000 ; Rapid travel
F3000
M3 S1000 ; Pen down
G4 P0.05 ; Pen settle delay
G1 X129.366 Y133.830
M5 ; Pen up

G0 X60.367 Y200.000 ; Rapid travel
F3000
M3 S1000 ; Pen down
G4 P0.05 ; Pen settle delay
G1 X126.537 Y133.830
M5 ; Pen up

G0 X57.539 Y200.000 ; Rapid travel
F3000
M3 S1000 ; Pen down
G4 P0.05 ; Pen settle delay
G1 X123.709 Y133.830
M5 ; Pen up

G0 X54.711 Y200.000 ; Rapid travel
F3000
M3 S1000 ; Pen down
G4 P0.05 ; Pen settle delay
G1 X120.880 Y133.830
M5 ; Pen up

G0 X51.882 Y200.000 ; Rapid travel
F3000
M3 S1000 ; Pen down
G4 P0.05 ; Pen settle delay
G1 X118.052 Y133.830
M5 ; Pen up

G0 X49.054 Y200.000 ; Rapid travel
F3000
M3 S1000 ; Pen down
G4 P0.05 ; Pen settle delay
G1 X115.223 Y133.830
M5 ; Pen up

G0 X34.656 Y183.285 ; Rapid travel
F3000
M3 S1000 ; Pen down
G4 P0.05 ; Pen settle delay
G1 X84.111 Y133.830
M5 ; Pen up

G0 X34.656 Y186.114 ; Rapid travel
F3000
M3 S1000 ; Pen down
G4 P0.05 ; Pen settle delay
G1 X86.939 Y133.830
M5 ; Pen up

G0 X34.656 Y188.942 ; Rapid travel
F3000
M3 S1000 ; Pen down
G4 P0.05 ; Pen settle delay
G1 X89.768 Y133.830
M5 ; Pen up

G0 X46.225 Y200.000 ; Rapid travel
F3000
M3 S1000 ; Pen down
G4 P0.05 ; Pen settle delay
G1 X112.395 Y133.830
M5 ; Pen up

G0 X43.397 Y200.000 ; Rapid travel
F3000
M3 S1000 ; Pen down
G4 P0.05 ; Pen settle delay
G1 X109.567 Y133.830
M5 ; Pen up

G0 X34.656 Y191.771 ; Rapid travel
F3000
M3 S1000 ; Pen down
G4 P0.05 ; Pen settle delay
G1 X92.596 Y133.830
M5 ; Pen up

G0 X34.656 Y194.599 ; Rapid travel
F3000
M3 S1000 ; Pen down
G4 P0.05 ; Pen settle delay
G1 X95.424 Y133.830
M5 ; Pen up

G0 X40.569 Y200.000 ; Rapid travel
F3000
M3 S1000 ; Pen down
G4 P0.05 ; Pen settle delay
G1 X106.738 Y133.830
M5 ; Pen up

G0 X37.740 Y200.000 ; Rapid travel
F3000
M3 S1000 ; Pen down
G4 P0.05 ; Pen settle delay
G1 X103.910 Y133.830
M5 ; Pen up

G0 X34.656 Y197.427 ; Rapid travel
F3000
M3 S1000 ; Pen down
G4 P0.05 ; Pen settle delay
G1 X98.253 Y133.830
M5 ; Pen up

G0 X34.912 Y200.000 ; Rapid travel
F3000
M3 S1000 ; Pen down
G4 P0.05 ; Pen settle delay
G1 X101.081 Y133.830
M5 ; Pen up

; -- End of job -----------------------------------------------
M5 ; Pen up - safe