; -- terraForge G-code ------------------------------------------
; Machine  : <normalized>
; Bed      : 220 x 200 mm
; Origin   : bottom-left
; Optimised: no
; Joined   : yes (tolerance 0.2 mm)
; Lift end : yes
; Ret home : no
; Pen delay: 50 ms
; Pen up delay: 0 ms
; Generated: <normalized>
; ---------------------------------------------------------------
G90      ; Absolute coordinates
G21      ; Units: mm
M5 ; Pen up

; -- Color: #000000 (4 objects) --
; -- Color: #ed2024 (42 objects) --
; -- Sequential path (46 subpaths) -----------
G0 X24.368 Y65.532 ; Rapid travel
F3000
M3 S1000 ; Pen down
G4 P0.05 ; Pen settle delay
G1 X24.420 Y66.552
G1 X24.571 Y67.543
G1 X24.817 Y68.499
G1 X25.152 Y69.415
G1 X25.572 Y70.287
G1 X26.072 Y71.109
G1 X26.646 Y71.877
G1 X27.290 Y72.586
G1 X27.998 Y73.229
G1 X28.766 Y73.804
G1 X29.588 Y74.303
G1 X30.460 Y74.723
G1 X31.377 Y75.059
G1 X32.333 Y75.305
G1 X33.323 Y75.456
G1 X34.343 Y75.507
G1 X35.363 Y75.456
G1 X36.353 Y75.305
G1 X37.309 Y75.059
G1 X38.226 Y74.723
G1 X39.097 Y74.303
G1 X39.920 Y73.804
G1 X40.688 Y73.229
G1 X41.396 Y72.586
G1 X42.040 Y71.877
G1 X42.614 Y71.109
G1 X43.114 Y70.287
G1 X43.534 Y69.415
G1 X43.869 Y68.499
G1 X44.115 Y67.543
G1 X44.266 Y66.552
G1 X44.318 Y65.532
G1 X44.266 Y64.513
G1 X44.115 Y63.522
G1 X43.869 Y62.566
G1 X43.534 Y61.650
G1 X43.114 Y60.778
G1 X42.614 Y59.955
G1 X42.040 Y59.188
G1 X41.396 Y58.479
G1 X40.688 Y57.835
G1 X39.920 Y57.261
G1 X39.097 Y56.762
G1 X38.226 Y56.341
G1 X37.309 Y56.006
G1 X36.353 Y55.760
G1 X35.363 Y55.609
G1 X34.343 Y55.558
G1 X33.323 Y55.609
G1 X32.333 Y55.760
G1 X31.377 Y56.006
G1 X30.460 Y56.341
G1 X29.588 Y56.762
G1 X28.766 Y57.261
G1 X27.998 Y57.835
G1 X27.290 Y58.479
G1 X26.646 Y59.188
G1 X26.072 Y59.955
G1 X25.572 Y60.778
G1 X25.152 Y61.650
G1 X24.817 Y62.566
G1 X24.571 Y63.522
G1 X24.420 Y64.513
G1 X24.368 Y65.532
G1 X24.368 Y65.532
M5 ; Pen up

G0 X0.000 Y71.697 ; Rapid travel
F3000
M3 S1000 ; Pen down
G4 P0.05 ; Pen settle delay
G1 X19.632 Y71.697
G1 X19.632 Y59.341
G1 X0.000 Y59.341
M5 ; Pen up

G0 X24.368 Y37.751 ; Rapid travel
F3000
M3 S1000 ; Pen down
G4 P0.05 ; Pen settle delay
G1 X24.420 Y38.771
G1 X24.571 Y39.761
G1 X24.817 Y40.717
G1 X25.152 Y41.634
G1 X25.572 Y42.506
G1 X26.072 Y43.328
G1 X26.646 Y44.096
G1 X27.290 Y44.804
G1 X27.998 Y45.448
G1 X28.766 Y46.022
G1 X29.588 Y46.522
G1 X30.460 Y46.942
G1 X31.377 Y47.278
G1 X32.333 Y47.523
G1 X33.323 Y47.674
G1 X34.343 Y47.726
G1 X35.363 Y47.674
G1 X36.353 Y47.523
G1 X37.309 Y47.278
G1 X38.226 Y46.942
G1 X39.097 Y46.522
G1 X39.920 Y46.022
G1 X40.688 Y45.448
G1 X41.396 Y44.804
G1 X42.040 Y44.096
G1 X42.614 Y43.328
G1 X43.114 Y42.506
G1 X43.534 Y41.634
G1 X43.869 Y40.717
G1 X44.115 Y39.761
G1 X44.266 Y38.771
G1 X44.318 Y37.751
G1 X44.266 Y36.731
G1 X44.115 Y35.741
G1 X43.869 Y34.785
G1 X43.534 Y33.869
G1 X43.114 Y32.997
G1 X42.614 Y32.174
G1 X42.040 Y31.406
G1 X41.396 Y30.698
G1 X40.688 Y30.054
G1 X39.920 Y29.480
G1 X39.097 Y28.980
G1 X38.226 Y28.560
G1 X37.309 Y28.225
G1 X36.353 Y27.979
G1 X35.363 Y27.828
G1 X34.343 Y27.776
G1 X33.323 Y27.828
G1 X32.333 Y27.979
G1 X31.377 Y28.225
G1 X30.460 Y28.560
G1 X29.588 Y28.980
G1 X28.766 Y29.480
G1 X27.998 Y30.054
G1 X27.290 Y30.698
G1 X26.646 Y31.406
G1 X26.072 Y32.174
G1 X25.572 Y32.997
G1 X25.152 Y33.869
G1 X24.817 Y34.785
G1 X24.571 Y35.741
G1 X24.420 Y36.731
G1 X24.368 Y37.751
G1 X24.368 Y37.751
M5 ; Pen up

G0 X0.000 Y43.916 ; Rapid travel
F3000
M3 S1000 ; Pen down
G4 P0.05 ; Pen settle delay
G1 X19.632 Y43.916
G1 X19.632 Y31.560
G1 X0.000 Y31.560
M5 ; Pen up

G0 X37.624 Y74.943 ; Rapid travel
F3000
M3 S1000 ; Pen down
G4 P0.05 ; Pen settle delay
G1 X43.754 Y68.814
M5 ; Pen up

G0 X34.237 Y75.502 ; Rapid travel
F3000
M3 S1000 ; Pen down
G4 P0.05 ; Pen settle delay
G1 X44.312 Y65.427
M5 ; Pen up

G0 X31.755 Y75.156 ; Rapid travel
F3000
M3 S1000 ; Pen down
G4 P0.05 ; Pen settle delay
G1 X43.966 Y62.944
M5 ; Pen up

G0 X29.717 Y74.365 ; Rapid travel
F3000
M3 S1000 ; Pen down
G4 P0.05 ; Pen settle delay
G1 X43.176 Y60.906
M5 ; Pen up

G0 X28.013 Y73.241 ; Rapid travel
F3000
M3 S1000 ; Pen down
G4 P0.05 ; Pen settle delay
G1 X42.051 Y59.203
M5 ; Pen up

G0 X26.604 Y71.821 ; Rapid travel
F3000
M3 S1000 ; Pen down
G4 P0.05 ; Pen settle delay
G1 X40.632 Y57.794
M5 ; Pen up

G0 X25.487 Y70.110 ; Rapid travel
F3000
M3 S1000 ; Pen down
G4 P0.05 ; Pen settle delay
G1 X38.921 Y56.676
M5 ; Pen up

G0 X24.705 Y68.064 ; Rapid travel
F3000
M3 S1000 ; Pen down
G4 P0.05 ; Pen settle delay
G1 X36.874 Y55.894
M5 ; Pen up

G0 X24.370 Y65.570 ; Rapid travel
F3000
M3 S1000 ; Pen down
G4 P0.05 ; Pen settle delay
G1 X34.381 Y55.559
M5 ; Pen up

G0 X24.973 Y62.139 ; Rapid travel
F3000
M3 S1000 ; Pen down
G4 P0.05 ; Pen settle delay
G1 X30.949 Y56.162
M5 ; Pen up

G0 X18.218 Y71.697 ; Rapid travel
F3000
M3 S1000 ; Pen down
G4 P0.05 ; Pen settle delay
G1 X19.632 Y70.283
M5 ; Pen up

G0 X15.389 Y71.697 ; Rapid travel
F3000
M3 S1000 ; Pen down
G4 P0.05 ; Pen settle delay
G1 X19.632 Y67.455
M5 ; Pen up

G0 X12.561 Y71.697 ; Rapid travel
F3000
M3 S1000 ; Pen down
G4 P0.05 ; Pen settle delay
G1 X19.632 Y64.626
M5 ; Pen up

G0 X9.733 Y71.697 ; Rapid travel
F3000
M3 S1000 ; Pen down
G4 P0.05 ; Pen settle delay
G1 X19.632 Y61.798
M5 ; Pen up

G0 X6.904 Y71.697 ; Rapid travel
F3000
M3 S1000 ; Pen down
G4 P0.05 ; Pen settle delay
G1 X19.260 Y59.341
M5 ; Pen up

G0 X4.076 Y71.697 ; Rapid travel
F3000
M3 S1000 ; Pen down
G4 P0.05 ; Pen settle delay
G1 X16.432 Y59.341
M5 ; Pen up

G0 X1.247 Y71.697 ; Rapid travel
F3000
M3 S1000 ; Pen down
G4 P0.05 ; Pen settle delay
G1 X13.603 Y59.341
M5 ; Pen up

G0 X0.000 Y70.116 ; Rapid travel
F3000
M3 S1000 ; Pen down
G4 P0.05 ; Pen settle delay
G1 X10.775 Y59.341
M5 ; Pen up

G0 X0.000 Y67.288 ; Rapid travel
F3000
M3 S1000 ; Pen down
G4 P0.05 ; Pen settle delay
G1 X7.946 Y59.341
M5 ; Pen up

G0 X0.000 Y64.459 ; Rapid travel
F3000
M3 S1000 ; Pen down
G4 P0.05 ; Pen settle delay
G1 X5.118 Y59.341
M5 ; Pen up

G0 X0.000 Y61.631 ; Rapid travel
F3000
M3 S1000 ; Pen down
G4 P0.05 ; Pen settle delay
G1 X2.290 Y59.341
M5 ; Pen up

G0 X37.624 Y19.381 ; Rapid travel
F3000
M3 S1000 ; Pen down
G4 P0.05 ; Pen settle delay
G1 X43.754 Y13.251
M5 ; Pen up

G0 X34.237 Y19.939 ; Rapid travel
F3000
M3 S1000 ; Pen down
G4 P0.05 ; Pen settle delay
G1 X44.312 Y9.864
M5 ; Pen up

G0 X31.755 Y19.593 ; Rapid travel
F3000
M3 S1000 ; Pen down
G4 P0.05 ; Pen settle delay
G1 X43.966 Y7.382
M5 ; Pen up

G0 X29.717 Y18.803 ; Rapid travel
F3000
M3 S1000 ; Pen down
G4 P0.05 ; Pen settle delay
G1 X43.176 Y5.344
M5 ; Pen up

G0 X28.013 Y17.678 ; Rapid travel
F3000
M3 S1000 ; Pen down
G4 P0.05 ; Pen settle delay
G1 X42.051 Y3.640
M5 ; Pen up

G0 X26.604 Y16.259 ; Rapid travel
F3000
M3 S1000 ; Pen down
G4 P0.05 ; Pen settle delay
G1 X40.632 Y2.231
M5 ; Pen up

G0 X25.487 Y14.548 ; Rapid travel
F3000
M3 S1000 ; Pen down
G4 P0.05 ; Pen settle delay
G1 X38.921 Y1.114
M5 ; Pen up

G0 X24.705 Y12.501 ; Rapid travel
F3000
M3 S1000 ; Pen down
G4 P0.05 ; Pen settle delay
G1 X36.874 Y0.332
M5 ; Pen up

G0 X24.370 Y10.008 ; Rapid travel
F3000
M3 S1000 ; Pen down
G4 P0.05 ; Pen settle delay
G1 X34.378 Y0.000
M5 ; Pen up

G0 X24.973 Y6.576 ; Rapid travel
F3000
M3 S1000 ; Pen down
G4 P0.05 ; Pen settle delay
G1 X30.949 Y0.600
M5 ; Pen up

G0 X18.218 Y16.135 ; Rapid travel
F3000
M3 S1000 ; Pen down
G4 P0.05 ; Pen settle delay
G1 X19.632 Y14.721
M5 ; Pen up

G0 X15.389 Y16.135 ; Rapid travel
F3000
M3 S1000 ; Pen down
G4 P0.05 ; Pen settle delay
G1 X19.632 Y11.892
M5 ; Pen up

G0 X12.561 Y16.135 ; Rapid travel
F3000
M3 S1000 ; Pen down
G4 P0.05 ; Pen settle delay
G1 X19.632 Y9.064
M5 ; Pen up

G0 X9.733 Y16.135 ; Rapid travel
F3000
M3 S1000 ; Pen down
G4 P0.05 ; Pen settle delay
G1 X19.632 Y6.235
M5 ; Pen up

G0 X6.904 Y16.135 ; Rapid travel
F3000
M3 S1000 ; Pen down
G4 P0.05 ; Pen settle delay
G1 X19.260 Y3.779
M5 ; Pen up

G0 X4.076 Y16.135 ; Rapid travel
F3000
M3 S1000 ; Pen down
G4 P0.05 ; Pen settle delay
G1 X16.432 Y3.779
M5 ; Pen up

G0 X1.247 Y16.135 ; Rapid travel
F3000
M3 S1000 ; Pen down
G4 P0.05 ; Pen settle delay
G1 X13.603 Y3.779
M5 ; Pen up

G0 X0.000 Y14.554 ; Rapid travel
F3000
M3 S1000 ; Pen down
G4 P0.05 ; Pen settle delay
G1 X10.775 Y3.779
M5 ; Pen up

G0 X0.000 Y11.725 ; Rapid travel
F3000
M3 S1000 ; Pen down
G4 P0.05 ; Pen settle delay
G1 X7.946 Y3.779
M5 ; Pen up

G0 X0.000 Y8.897 ; Rapid travel
F3000
M3 S1000 ; Pen down
G4 P0.05 ; Pen settle delay
G1 X5.118 Y3.779
M5 ; Pen up

G0 X0.000 Y6.068 ; Rapid travel
F3000
M3 S1000 ; Pen down
G4 P0.05 ; Pen settle delay
G1 X2.290 Y3.779
M5 ; Pen up

; -- End of job -----------------------------------------------
M5 ; Pen up - safe