; -- terraForge G-code ------------------------------------------
; Machine  : <normalized>
; Bed      : 220 x 200 mm
; Origin   : bottom-left
; Optimised: no
; Joined   : no
; Lift end : yes
; Ret home : no
; Pen delay: 50 ms
; Pen up delay: 0 ms
; Generated: <normalized>
; ---------------------------------------------------------------
G90      ; Absolute coordinates
G21      ; Units: mm
M5 ; Pen up

; -- Color: #000000 (2 objects) --
; -- Sequential path (14 subpaths) -----------
G0 X6.429 Y0.220 ; Rapid travel
F3000
M3 S1000 ; Pen down
G4 P0.05 ; Pen settle delay
G1 X5.979 Y0.148
G1 X5.487 Y0.098
G1 X4.989 Y0.083
G1 X4.524 Y0.115
G1 X3.817 Y0.288
G1 X3.271 Y0.591
G1 X3.053 Y0.800
G1 X2.869 Y1.052
G1 X2.716 Y1.352
G1 X2.593 Y1.702
G1 X2.474 Y2.278
G1 X2.434 Y2.893
G1 X2.434 Y15.381
M5 ; Pen up

G0 X6.191 Y11.756 ; Rapid travel
F3000
M3 S1000 ; Pen down
G4 P0.05 ; Pen settle delay
G1 X0.000 Y11.756
M5 ; Pen up

G0 X9.737 Y6.597 ; Rapid travel
F3000
M3 S1000 ; Pen down
G4 P0.05 ; Pen settle delay
G1 X18.309 Y6.597
G1 X18.311 Y6.680
G1 X18.315 Y6.908
G1 X18.319 Y7.244
G1 X18.319 Y7.655
G1 X18.298 Y8.561
G1 X18.271 Y8.987
G1 X18.230 Y9.349
G1 X18.138 Y9.767
G1 X18.003 Y10.148
G1 X17.825 Y10.494
G1 X17.605 Y10.804
G1 X17.344 Y11.079
G1 X17.043 Y11.321
G1 X16.325 Y11.703
G1 X15.541 Y11.939
G1 X14.741 Y12.057
G1 X13.925 Y12.072
G1 X13.097 Y11.994
G1 X12.386 Y11.872
G1 X11.695 Y11.650
G1 X11.225 Y11.428
G1 X10.827 Y11.158
G1 X10.496 Y10.843
G1 X10.229 Y10.486
G1 X10.024 Y10.090
G1 X9.875 Y9.656
G1 X9.781 Y9.188
G1 X9.737 Y8.687
G1 X9.729 Y8.382
G1 X9.726 Y7.991
G1 X9.727 Y7.103
G1 X9.730 Y6.686
G1 X9.733 Y6.339
G1 X9.736 Y6.103
G1 X9.737 Y6.015
G1 X9.733 Y5.914
G1 X9.724 Y5.642
G1 X9.717 Y5.240
G1 X9.717 Y4.755
G1 X9.759 Y3.704
G1 X9.813 Y3.227
G1 X9.895 Y2.840
G1 X10.208 Y2.051
G1 X10.669 Y1.395
G1 X11.280 Y0.872
G1 X12.039 Y0.485
G1 X12.932 Y0.217
G1 X13.864 Y0.088
G1 X13.920 Y0.085
G1 X14.076 Y0.077
G1 X14.311 Y0.067
G1 X14.605 Y0.058
G1 X15.293 Y0.055
G1 X15.981 Y0.088
G1 X16.498 Y0.129
G1 X17.119 Y0.174
G1 X17.759 Y0.230
G1 X18.336 Y0.300
M5 ; Pen up

G0 X22.543 Y11.862 ; Rapid travel
F3000
M3 S1000 ; Pen down
G4 P0.05 ; Pen settle delay
G1 X22.543 Y0.115
M5 ; Pen up

G0 X28.628 Y11.809 ; Rapid travel
F3000
M3 S1000 ; Pen down
G4 P0.05 ; Pen settle delay
G1 X28.277 Y11.865
G1 X27.887 Y11.902
G1 X27.497 Y11.899
G1 X27.146 Y11.836
G1 X26.863 Y11.725
G1 X26.604 Y11.568
G1 X26.141 Y11.201
G1 X22.569 Y8.026
M5 ; Pen up

G0 X32.068 Y11.862 ; Rapid travel
F3000
M3 S1000 ; Pen down
G4 P0.05 ; Pen settle delay
G1 X32.068 Y0.115
M5 ; Pen up

G0 X38.126 Y11.809 ; Rapid travel
F3000
M3 S1000 ; Pen down
G4 P0.05 ; Pen settle delay
G1 X37.776 Y11.865
G1 X37.386 Y11.902
G1 X36.995 Y11.899
G1 X36.645 Y11.836
G1 X36.361 Y11.725
G1 X36.102 Y11.568
G1 X35.639 Y11.201
G1 X32.068 Y8.026
M5 ; Pen up

G0 X48.657 Y0.115 ; Rapid travel
F3000
M3 S1000 ; Pen down
G4 P0.05 ; Pen settle delay
G1 X48.657 Y6.385
G1 X48.659 Y6.472
G1 X48.663 Y6.711
G1 X48.667 Y7.065
G1 X48.667 Y7.500
G1 X48.646 Y8.473
G1 X48.619 Y8.940
G1 X48.578 Y9.349
G1 X48.467 Y9.855
G1 X48.298 Y10.304
G1 X48.070 Y10.696
G1 X47.787 Y11.035
G1 X47.451 Y11.322
G1 X47.063 Y11.559
G1 X46.627 Y11.747
G1 X46.143 Y11.889
G1 X45.552 Y11.991
G1 X44.963 Y12.031
G1 X43.762 Y11.994
G1 X41.222 Y11.809
M5 ; Pen up

G0 X48.657 Y6.491 ; Rapid travel
F3000
M3 S1000 ; Pen down
G4 P0.05 ; Pen settle delay
G1 X46.183 Y6.428
G1 X43.709 Y6.306
G1 X43.065 Y6.243
G1 X42.446 Y6.117
G1 X41.856 Y5.908
G1 X41.301 Y5.592
G1 X40.941 Y5.280
G1 X40.654 Y4.909
G1 X40.436 Y4.492
G1 X40.286 Y4.040
G1 X40.202 Y3.568
G1 X40.182 Y3.087
G1 X40.222 Y2.611
G1 X40.323 Y2.152
G1 X40.485 Y1.726
G1 X40.709 Y1.342
G1 X40.989 Y1.002
G1 X41.315 Y0.710
G1 X41.681 Y0.467
G1 X42.079 Y0.277
G1 X42.502 Y0.141
G1 X42.942 Y0.062
G1 X43.432 Y0.046
G1 X43.908 Y0.111
G1 X44.363 Y0.251
G1 X44.794 Y0.459
G1 X44.946 Y0.548
G1 X45.150 Y0.675
G1 X45.677 Y1.016
G1 X46.307 Y1.433
G1 X46.973 Y1.881
G1 X47.609 Y2.311
G1 X48.146 Y2.676
G1 X48.357 Y2.820
G1 X48.518 Y2.930
G1 X48.621 Y3.000
G1 X48.657 Y3.025
M5 ; Pen up

G0 X52.784 Y8.608 ; Rapid travel
F3000
M3 S1000 ; Pen down
G4 P0.05 ; Pen settle delay
G1 X59.452 Y8.608
G1 X60.071 Y8.654
G1 X60.656 Y8.796
G1 X61.201 Y9.043
G1 X61.701 Y9.402
G1 X62.163 Y9.911
G1 X62.485 Y10.483
G1 X62.672 Y11.109
G1 X62.733 Y11.783
G1 X62.733 Y13.873
G1 X62.657 Y14.561
G1 X62.465 Y15.193
G1 X62.149 Y15.759
G1 X61.701 Y16.254
G1 X61.201 Y16.613
G1 X60.656 Y16.859
G1 X60.071 Y17.002
G1 X59.452 Y17.048
G1 X52.784 Y17.048
G1 X52.784 Y0.115
M5 ; Pen up

G0 X65.564 Y6.544 ; Rapid travel
F3000
M3 S1000 ; Pen down
G4 P0.05 ; Pen settle delay
G1 X74.136 Y6.544
G1 X74.138 Y6.628
G1 X74.142 Y6.855
G1 X74.146 Y7.191
G1 X74.146 Y7.602
G1 X74.125 Y8.509
G1 X74.098 Y8.934
G1 X74.057 Y9.296
G1 X73.965 Y9.714
G1 X73.830 Y10.095
G1 X73.652 Y10.441
G1 X73.432 Y10.751
G1 X73.171 Y11.026
G1 X72.870 Y11.268
G1 X72.152 Y11.650
G1 X71.368 Y11.886
G1 X70.568 Y12.004
G1 X69.752 Y12.019
G1 X68.924 Y11.942
G1 X68.213 Y11.819
G1 X67.522 Y11.598
G1 X67.052 Y11.375
G1 X66.654 Y11.105
G1 X66.323 Y10.790
G1 X66.057 Y10.433
G1 X65.851 Y10.037
G1 X65.702 Y9.603
G1 X65.608 Y9.135
G1 X65.564 Y8.634
G1 X65.556 Y8.329
G1 X65.553 Y7.938
G1 X65.554 Y7.050
G1 X65.557 Y6.633
G1 X65.560 Y6.286
G1 X65.563 Y6.050
G1 X65.564 Y5.962
G1 X65.560 Y5.861
G1 X65.551 Y5.589
G1 X65.544 Y5.188
G1 X65.544 Y4.702
G1 X65.586 Y3.651
G1 X65.640 Y3.174
G1 X65.723 Y2.787
G1 X66.035 Y1.999
G1 X66.496 Y1.342
G1 X67.107 Y0.819
G1 X67.866 Y0.432
G1 X68.759 Y0.164
G1 X69.691 Y0.035
G1 X69.747 Y0.032
G1 X69.903 Y0.024
G1 X70.138 Y0.014
G1 X70.432 Y0.006
G1 X71.120 Y0.002
G1 X71.808 Y0.035
G1 X72.325 Y0.076
G1 X72.946 Y0.121
G1 X73.586 Y0.177
G1 X74.163 Y0.247
M5 ; Pen up

G0 X78.370 Y11.862 ; Rapid travel
F3000
M3 S1000 ; Pen down
G4 P0.05 ; Pen settle delay
G1 X78.370 Y0.115
M5 ; Pen up

G0 X86.995 Y0.115 ; Rapid travel
F3000
M3 S1000 ; Pen down
G4 P0.05 ; Pen settle delay
G1 X86.995 Y6.438
G1 X86.995 Y6.526
G1 X86.994 Y6.767
G1 X86.991 Y7.125
G1 X86.985 Y7.563
G1 X86.962 Y8.537
G1 X86.942 Y9.001
G1 X86.916 Y9.402
G1 X86.793 Y9.998
G1 X86.549 Y10.546
G1 X86.190 Y11.024
G1 X85.725 Y11.412
G1 X85.097 Y11.746
G1 X84.429 Y11.942
G1 X83.780 Y12.004
G1 X83.132 Y11.968
G1 X82.844 Y11.897
G1 X82.570 Y11.776
G1 X82.047 Y11.465
G1 X79.428 Y9.719
G1 X78.343 Y9.031
M5 ; Pen up

G0 X30.483 Y70.621 ; Rapid travel
F3000
M3 S1000 ; Pen down
G4 P0.05 ; Pen settle delay
G1 X36.997 Y66.872
G1 X36.997 Y51.835
G1 X43.511 Y48.086
G1 X43.511 Y40.567
G1 X36.997 Y44.316
G1 X36.997 Y33.050
G1 X37.054 Y32.186
G1 X37.221 Y31.349
G1 X37.494 Y30.547
G1 X37.867 Y29.791
G1 X38.336 Y29.089
G1 X38.895 Y28.452
G1 X39.540 Y27.888
G1 X40.264 Y27.406
G1 X43.511 Y25.533
G1 X43.511 Y18.014
G1 X36.997 Y21.763
G1 X36.323 Y22.182
G1 X35.648 Y22.665
G1 X34.980 Y23.205
G1 X34.331 Y23.797
G1 X33.711 Y24.437
G1 X33.131 Y25.118
G1 X32.599 Y25.835
G1 X32.128 Y26.584
G1 X31.717 Y27.375
G1 X31.370 Y28.185
G1 X31.086 Y29.007
G1 X30.860 Y29.832
G1 X30.690 Y30.654
G1 X30.573 Y31.466
G1 X30.483 Y33.029
G1 X30.483 Y48.044
G1 X23.969 Y51.793
G1 X23.969 Y59.313
G1 X30.483 Y55.563
G1 X30.483 Y70.623
G1 X51.644 Y82.826
G1 X52.053 Y83.026
G1 X52.472 Y83.163
G1 X52.896 Y83.241
G1 X53.318 Y83.263
G1 X53.734 Y83.229
G1 X54.138 Y83.144
G1 X54.890 Y82.826
G1 X61.405 Y79.077
G1 X62.053 Y78.584
G1 X62.329 Y78.279
G1 X62.567 Y77.938
G1 X62.760 Y77.564
G1 X62.905 Y77.159
G1 X62.995 Y76.726
G1 X63.026 Y76.267
G1 X63.026 Y55.585
G1 X62.971 Y54.723
G1 X62.807 Y53.893
G1 X62.535 Y53.097
G1 X62.159 Y52.338
G1 X61.698 Y51.645
G1 X61.142 Y51.012
G1 X60.501 Y50.448
G1 X59.783 Y49.962
G1 X43.511 Y40.569
G1 X43.511 Y36.820
G1 X43.568 Y35.955
G1 X43.735 Y35.115
G1 X44.008 Y34.310
G1 X44.382 Y33.549
G1 X44.850 Y32.843
G1 X45.409 Y32.202
G1 X46.054 Y31.635
G1 X46.778 Y31.153
G1 X50.025 Y29.280
G1 X50.025 Y21.760
G1 X43.511 Y18.011
G1 X36.997 Y21.760
G1 X36.323 Y22.180
G1 X35.648 Y22.662
G1 X34.980 Y23.202
G1 X34.331 Y23.795
G1 X33.711 Y24.434
G1 X33.131 Y25.115
G1 X32.599 Y25.833
G1 X32.128 Y26.581
G1 X31.717 Y27.372
G1 X31.370 Y28.183
G1 X31.086 Y29.004
G1 X30.860 Y29.829
G1 X30.690 Y30.652
G1 X30.573 Y31.463
G1 X30.483 Y33.026
G1 X30.483 Y48.041
G1 X23.969 Y51.790
G1 X23.969 Y59.310
G1 X30.483 Y63.059
G1 X30.483 Y59.310
G1 X27.236 Y61.183
G1 X30.483 Y63.056
G1 X30.483 Y70.621
G1 X33.729 Y72.494
G1 X40.243 Y68.745
G1 X40.243 Y53.709
G1 X46.757 Y49.960
G1 X46.757 Y42.419
G1 X43.511 Y40.546
G1 X40.264 Y42.419
G1 X40.264 Y34.923
G1 X40.321 Y34.059
G1 X40.489 Y33.222
G1 X40.762 Y32.420
G1 X41.135 Y31.664
G1 X41.604 Y30.962
G1 X42.163 Y30.325
G1 X42.807 Y29.761
G1 X43.532 Y29.280
G1 X46.778 Y27.406
G1 X46.778 Y19.911
G1 X50.025 Y21.784
G1 X50.025 Y29.303
G1 X46.778 Y31.177
G1 X46.061 Y31.659
G1 X45.419 Y32.223
G1 X44.861 Y32.862
G1 X44.390 Y33.565
G1 X44.014 Y34.324
G1 X43.739 Y35.129
G1 X43.569 Y35.972
G1 X43.511 Y36.844
G1 X43.511 Y40.593
G1 X50.025 Y44.342
G1 X50.025 Y51.862
G1 X43.511 Y55.587
G1 X43.511 Y70.623
G1 X36.997 Y74.373
G1 X40.243 Y76.246
G1 X46.757 Y72.497
G1 X46.757 Y64.977
G1 X43.511 Y63.104
G1 X43.511 Y55.585
G1 X46.778 Y57.482
G1 X53.292 Y53.732
G1 X53.269 Y53.709
G1 X53.269 Y46.213
G1 X56.515 Y48.086
G1 X56.515 Y55.582
G1 X49.133 Y59.855
G1 X48.673 Y59.162
G1 X48.119 Y58.532
G1 X47.484 Y57.974
G1 X46.778 Y57.500
G1 X43.487 Y55.603
G1 X43.487 Y63.123
G1 X50.001 Y66.872
G1 X50.001 Y74.391
G1 X43.511 Y78.140
G1 X46.757 Y80.014
G1 X53.271 Y76.264
G1 X53.271 Y68.266
G1 X52.860 Y68.240
G1 X52.451 Y68.160
G1 X52.047 Y68.025
G1 X51.649 Y67.832
G1 X50.004 Y66.872
G1 X50.004 Y63.101
G1 X49.948 Y62.251
G1 X49.784 Y61.422
G1 X49.512 Y60.627
G1 X49.136 Y59.879
G1 X56.518 Y55.606
G1 X56.518 Y65.067
G1 X56.483 Y65.519
G1 X56.390 Y65.945
G1 X56.244 Y66.345
G1 X56.049 Y66.714
G1 X55.811 Y67.051
G1 X55.533 Y67.353
G1 X54.880 Y67.839
G1 X54.128 Y68.151
G1 X53.726 Y68.236
G1 X53.313 Y68.269
G1 X52.894 Y68.247
G1 X52.474 Y68.169
G1 X52.058 Y68.032
G1 X51.649 Y67.832
G1 X50.004 Y66.872
G1 X50.004 Y63.101
G1 X56.518 Y59.352
G1 X56.518 Y63.146
G1 X50.004 Y66.895
G1 X51.649 Y67.856
G1 X52.058 Y68.055
G1 X52.473 Y68.192
G1 X52.892 Y68.270
G1 X53.310 Y68.291
G1 X53.721 Y68.258
G1 X54.121 Y68.174
G1 X54.871 Y67.862
G1 X55.523 Y67.376
G1 X56.039 Y66.738
G1 X56.235 Y66.369
G1 X56.383 Y65.969
G1 X56.479 Y65.542
G1 X56.518 Y65.091
G1 X56.518 Y78.185
G1 X50.004 Y81.934
G1 X51.626 Y82.871
G1 X52.035 Y83.070
G1 X52.454 Y83.208
G1 X52.877 Y83.286
G1 X53.299 Y83.308
G1 X53.715 Y83.274
G1 X54.119 Y83.189
G1 X54.872 Y82.871
G1 X59.761 Y80.061
G1 X59.785 Y50.010
M5 ; Pen up

; -- End of job -----------------------------------------------
M5 ; Pen up - safe