; -- terraForge G-code ------------------------------------------
; Machine  : <normalized>
; Bed      : 220 x 200 mm
; Origin   : bottom-left
; Optimised: no
; Joined   : no
; Lift end : yes
; Ret home : no
; Pen delay: 50 ms
; Pen up delay: 0 ms
; Generated: <normalized>
; ---------------------------------------------------------------
G90      ; Absolute coordinates
G21      ; Units: mm
M5 ; Pen up

; -- Color: url(#_linear1) (1 object) --
; -- Sequential path (1 subpaths) -----------
G0 X25.786 Y22.661 ; Rapid travel
F3000
M3 S1000 ; Pen down
G4 P0.05 ; Pen settle delay
G1 X25.793 Y22.628
G1 X25.816 Y22.540
G1 X25.909 Y22.246
G1 X26.070 Y21.877
G1 X26.306 Y21.532
G1 X26.620 Y21.313
G1 X26.808 Y21.280
G1 X27.018 Y21.317
G1 X27.250 Y21.434
G1 X27.505 Y21.644
G1 X27.783 Y21.961
G1 X28.086 Y22.395
G1 X28.683 Y23.398
G1 X29.197 Y24.399
G1 X29.605 Y25.374
G1 X29.884 Y26.300
G1 X30.009 Y27.152
G1 X30.008 Y27.543
G1 X29.959 Y27.907
G1 X29.860 Y28.241
G1 X29.709 Y28.542
G1 X29.502 Y28.806
G1 X29.237 Y29.032
G1 X28.879 Y29.228
G1 X28.407 Y29.408
G1 X27.838 Y29.568
G1 X27.186 Y29.706
G1 X26.467 Y29.821
G1 X25.697 Y29.911
G1 X24.066 Y30.005
G1 X22.418 Y29.972
G1 X21.626 Y29.902
G1 X20.877 Y29.795
G1 X20.186 Y29.647
G1 X19.569 Y29.457
G1 X19.041 Y29.223
G1 X18.619 Y28.943
G1 X18.269 Y28.599
G1 X17.951 Y28.180
G1 X17.666 Y27.694
G1 X17.414 Y27.151
G1 X17.199 Y26.560
G1 X17.020 Y25.928
G1 X16.779 Y24.578
G1 X16.701 Y23.171
G1 X16.797 Y21.776
G1 X16.915 Y21.105
G1 X17.079 Y20.462
G1 X17.293 Y19.857
G1 X17.557 Y19.299
G1 X17.885 Y18.742
G1 X18.278 Y18.156
G1 X18.732 Y17.550
G1 X19.243 Y16.932
G1 X20.414 Y15.694
G1 X21.751 Y14.510
G1 X23.217 Y13.449
G1 X23.986 Y12.986
G1 X24.773 Y12.580
G1 X25.572 Y12.238
G1 X26.379 Y11.970
G1 X27.189 Y11.784
G1 X27.998 Y11.689
G1 X28.954 Y11.605
G1 X30.017 Y11.472
G1 X31.171 Y11.315
G1 X32.397 Y11.156
G1 X33.677 Y11.019
G1 X34.993 Y10.927
G1 X36.328 Y10.904
G1 X37.663 Y10.972
G1 X38.982 Y11.156
G1 X40.265 Y11.477
G1 X41.495 Y11.961
G1 X42.084 Y12.270
G1 X42.654 Y12.629
G1 X43.202 Y13.040
G1 X43.725 Y13.505
G1 X44.221 Y14.029
G1 X44.689 Y14.613
G1 X45.125 Y15.261
G1 X45.528 Y15.976
G1 X45.896 Y16.760
G1 X46.225 Y17.617
G1 X46.434 Y18.352
G1 X46.562 Y19.111
G1 X46.612 Y19.891
G1 X46.588 Y20.689
G1 X46.493 Y21.504
G1 X46.330 Y22.332
G1 X46.104 Y23.171
G1 X45.817 Y24.019
G1 X45.473 Y24.873
G1 X45.075 Y25.730
G1 X44.132 Y27.444
G1 X43.015 Y29.142
G1 X41.753 Y30.804
G1 X40.371 Y32.409
G1 X38.898 Y33.937
G1 X37.362 Y35.367
G1 X35.788 Y36.681
G1 X34.206 Y37.857
G1 X32.642 Y38.875
G1 X31.124 Y39.715
G1 X30.391 Y40.062
G1 X29.679 Y40.357
G1 X28.951 Y40.618
G1 X28.170 Y40.862
G1 X26.465 Y41.297
G1 X24.599 Y41.653
G1 X22.605 Y41.920
G1 X20.520 Y42.089
G1 X18.377 Y42.151
G1 X16.212 Y42.096
G1 X14.060 Y41.914
G1 X11.954 Y41.597
G1 X9.930 Y41.135
G1 X8.960 Y40.846
G1 X8.023 Y40.518
G1 X7.124 Y40.148
G1 X6.268 Y39.737
G1 X5.457 Y39.282
G1 X4.698 Y38.782
G1 X3.994 Y38.237
G1 X3.349 Y37.644
G1 X2.768 Y37.004
G1 X2.256 Y36.315
G1 X1.816 Y35.574
G1 X1.453 Y34.783
G1 X1.058 Y33.697
G1 X0.724 Y32.601
G1 X0.453 Y31.495
G1 X0.245 Y30.380
G1 X0.100 Y29.259
G1 X0.019 Y28.133
G1 X0.002 Y27.003
G1 X0.048 Y25.870
G1 X0.160 Y24.736
G1 X0.336 Y23.602
G1 X0.578 Y22.470
G1 X0.885 Y21.341
G1 X1.258 Y20.216
G1 X1.698 Y19.097
G1 X2.204 Y17.985
G1 X2.778 Y16.882
G1 X3.419 Y15.788
G1 X4.127 Y14.706
G1 X4.904 Y13.636
G1 X5.749 Y12.580
G1 X6.663 Y11.540
G1 X7.647 Y10.517
G1 X8.699 Y9.512
G1 X9.822 Y8.526
G1 X11.015 Y7.561
G1 X12.279 Y6.619
G1 X13.613 Y5.701
G1 X15.019 Y4.807
G1 X16.496 Y3.941
G1 X18.046 Y3.102
G1 X19.667 Y2.292
G1 X21.362 Y1.513
G1 X22.440 Y1.096
G1 X23.599 Y0.752
G1 X24.828 Y0.477
G1 X26.111 Y0.269
G1 X27.437 Y0.123
G1 X28.793 Y0.034
G1 X31.540 Y0.017
G1 X34.248 Y0.187
G1 X35.554 Y0.333
G1 X36.812 Y0.514
G1 X38.008 Y0.726
G1 X39.129 Y0.966
G1 X40.162 Y1.229
G1 X41.094 Y1.513
G1 X42.754 Y2.145
G1 X44.244 Y2.865
G1 X45.575 Y3.655
G1 X46.753 Y4.497
G1 X47.788 Y5.373
G1 X48.688 Y6.266
G1 X49.462 Y7.158
G1 X50.118 Y8.031
G1 X50.665 Y8.868
G1 X51.112 Y9.651
G1 X51.466 Y10.362
G1 X51.736 Y10.983
G1 X51.932 Y11.498
G1 X52.061 Y11.887
G1 X52.132 Y12.133
G1 X52.154 Y12.219
M5 ; Pen up

; -- End of job -----------------------------------------------
M5 ; Pen up - safe