; -- terraForge G-code ------------------------------------------
; Machine  : <normalized>
; Bed      : 220 x 200 mm
; Origin   : bottom-left
; Optimised: no
; Joined   : no
; Lift end : yes
; Ret home : no
; Pen delay: 50 ms
; Generated: <normalized>
; ---------------------------------------------------------------
G90      ; Absolute coordinates
G21      ; Units: mm
M5 ; Pen up

; -- Sequential path (23 subpaths) -----------
G0 X46.646 Y0.000 ; Rapid travel
F3000
M3 S1000 ; Pen down
G4 P0.05 ; Pen settle delay
G1 X45.975 Y0.093
G1 X45.323 Y0.344
G1 X30.665 Y8.784
G1 X28.880 Y9.900
G1 X27.145 Y11.153
G1 X25.478 Y12.526
G1 X23.895 Y14.003
G1 X22.413 Y15.567
G1 X21.047 Y17.200
G1 X19.815 Y18.887
G1 X18.732 Y20.611
G1 X17.807 Y22.374
G1 X16.995 Y24.222
G1 X16.301 Y26.143
G1 X15.726 Y28.125
G1 X15.275 Y30.157
G1 X14.949 Y32.227
G1 X14.751 Y34.323
G1 X14.684 Y36.433
G1 X14.684 Y68.554
G1 X14.648 Y68.669
G1 X14.552 Y68.765
G1 X1.323 Y76.359
G1 X0.770 Y76.785
G1 X0.354 Y77.328
G1 X0.091 Y77.955
G1 X0.000 Y78.634
M5 ; Pen up

G0 X0.000 Y95.779 ; Rapid travel
F3000
M3 S1000 ; Pen down
G4 P0.05 ; Pen settle delay
G1 X0.004 Y95.812
G1 X0.013 Y95.885
G1 X0.022 Y95.958
G1 X0.026 Y95.991
G1 X0.026 Y96.057
G1 X0.026 Y96.123
G1 X0.026 Y96.176
G1 X0.053 Y96.282
G1 X0.066 Y96.348
G1 X0.079 Y96.414
G1 X0.079 Y96.441
G1 X0.079 Y96.494
G1 X0.294 Y96.947
G1 X0.609 Y97.340
G1 X0.661 Y97.393
G1 X0.714 Y97.446
G1 X0.767 Y97.499
G1 X0.820 Y97.552
G1 X0.860 Y97.592
G1 X0.900 Y97.631
G1 X1.191 Y97.843
G1 X1.225 Y97.863
G1 X1.324 Y97.920
G1 X1.485 Y98.012
G1 X1.704 Y98.138
G1 X1.975 Y98.294
G1 X2.296 Y98.478
G1 X3.068 Y98.922
G1 X3.987 Y99.450
G1 X5.021 Y100.045
G1 X6.136 Y100.686
G1 X7.299 Y101.355
G1 X9.641 Y102.703
G1 X10.754 Y103.344
G1 X11.783 Y103.937
G1 X12.698 Y104.465
G1 X13.464 Y104.908
G1 X13.781 Y105.091
G1 X14.049 Y105.247
G1 X14.263 Y105.371
G1 X14.420 Y105.463
G1 X14.516 Y105.559
G1 X14.552 Y105.675
G1 X14.552 Y120.994
G1 X14.631 Y121.662
G1 X14.870 Y122.290
G1 X14.896 Y122.343
G1 X14.922 Y122.396
G1 X15.339 Y122.909
G1 X15.875 Y123.322
G1 X23.151 Y127.529
G1 X23.283 Y127.609
G1 X44.926 Y140.097
G1 X45.376 Y140.361
G1 X52.202 Y144.304
G1 X52.679 Y144.568
G1 X63.447 Y150.786
G1 X64.615 Y151.361
G1 X65.845 Y151.775
G1 X67.119 Y152.025
G1 X68.421 Y152.109
G1 X69.723 Y152.021
G1 X70.998 Y151.762
G1 X72.228 Y151.339
G1 X73.395 Y150.760
G1 X88.027 Y142.346
G1 X89.137 Y141.599
G1 X90.121 Y140.734
G1 X90.973 Y139.765
G1 X91.685 Y138.701
G1 X92.250 Y137.556
G1 X92.663 Y136.341
G1 X92.915 Y135.067
G1 X93.001 Y133.747
G1 X93.001 Y87.207
G1 X92.965 Y86.056
G1 X92.857 Y84.925
G1 X92.677 Y83.815
G1 X92.426 Y82.725
G1 X92.102 Y81.657
G1 X91.706 Y80.610
G1 X91.239 Y79.585
G1 X90.699 Y78.581
G1 X90.120 Y77.647
G1 X89.477 Y76.749
G1 X88.772 Y75.891
G1 X88.007 Y75.076
G1 X87.185 Y74.305
G1 X86.309 Y73.581
G1 X85.380 Y72.906
G1 X84.402 Y72.284
G1 X55.483 Y55.589
G1 X55.457 Y55.589
G1 X55.086 Y55.324
G1 X49.212 Y51.938
G1 X49.117 Y51.842
G1 X49.080 Y51.726
G1 X49.080 Y45.059
G1 X49.107 Y44.254
G1 X49.187 Y43.458
G1 X49.502 Y41.903
G1 X50.012 Y40.413
G1 X50.707 Y39.006
G1 X51.576 Y37.701
G1 X52.607 Y36.516
G1 X53.790 Y35.470
G1 X54.435 Y35.005
G1 X55.113 Y34.581
G1 X62.415 Y30.374
G1 X62.968 Y29.948
G1 X63.384 Y29.405
G1 X63.647 Y28.778
G1 X63.738 Y28.099
G1 X63.738 Y11.139
G1 X63.647 Y10.460
G1 X63.384 Y9.833
G1 X62.968 Y9.290
G1 X62.415 Y8.864
G1 X47.757 Y0.423
G1 X47.651 Y0.370
G1 X47.572 Y0.317
G1 X47.519 Y0.291
G1 X47.466 Y0.265
G1 X47.374 Y0.225
G1 X47.281 Y0.185
G1 X47.202 Y0.185
G1 X47.096 Y0.159
G1 X47.096 Y0.159
G1 X46.461 Y0.079
G1 X46.461 Y0.079
G1 X46.646 Y0.000
M5 ; Pen up

G0 X58.261 Y107.818 ; Rapid travel
F3000
M3 S1000 ; Pen down
G4 P0.05 ; Pen settle delay
G1 X58.382 Y107.848
G1 X58.493 Y107.824
G1 X58.574 Y107.751
G1 X58.605 Y107.632
G1 X58.605 Y104.087
G1 X58.502 Y102.514
G1 X58.198 Y100.988
G1 X57.701 Y99.537
G1 X57.382 Y98.847
G1 X57.018 Y98.187
G1 X56.859 Y97.869
G1 X56.023 Y96.667
G1 X55.033 Y95.571
G1 X53.905 Y94.599
G1 X52.652 Y93.768
G1 X49.239 Y91.810
G1 X49.239 Y102.447
G1 X49.275 Y102.562
G1 X49.371 Y102.658
G1 X58.261 Y107.844
G1 X58.261 Y107.844
G1 X58.261 Y107.818
M5 ; Pen up

G0 X87.471 Y140.996 ; Rapid travel
F3000
M3 S1000 ; Pen down
G4 P0.05 ; Pen settle delay
G1 X72.813 Y149.437
G1 X71.814 Y149.932
G1 X70.769 Y150.285
G1 X69.694 Y150.497
G1 X68.603 Y150.568
G1 X67.511 Y150.497
G1 X66.432 Y150.285
G1 X65.381 Y149.932
G1 X64.373 Y149.437
G1 X53.525 Y143.192
G1 X53.208 Y143.007
G1 X46.196 Y138.986
G1 X45.905 Y138.827
G1 X24.130 Y126.259
G1 X24.024 Y126.206
G1 X16.748 Y121.999
G1 X16.517 Y121.821
G1 X16.325 Y121.602
G1 X16.325 Y121.602
G1 X16.325 Y121.602
G1 X16.325 Y121.602
G1 X16.325 Y121.602
G1 X16.219 Y121.325
G1 X16.192 Y121.047
G1 X16.192 Y104.696
G1 X2.117 Y96.599
G1 X2.117 Y96.599
G1 X1.984 Y96.494
G1 X1.984 Y96.494
G1 X1.984 Y96.494
G1 X1.984 Y96.494
G1 X1.984 Y96.494
G1 X1.984 Y96.494
G1 X1.984 Y96.494
G1 X1.984 Y96.494
G1 X1.984 Y96.494
G1 X1.984 Y96.494
G1 X1.984 Y96.494
G1 X1.984 Y96.494
G1 X1.984 Y96.494
G1 X1.984 Y96.494
G1 X1.984 Y96.494
G1 X1.984 Y96.494
G1 X1.984 Y96.494
G1 X1.746 Y96.123
G1 X1.746 Y96.123
G1 X1.746 Y96.123
G1 X1.746 Y96.123
G1 X1.746 Y96.123
G1 X1.746 Y96.123
G1 X1.746 Y96.123
G1 X1.746 Y96.123
G1 X1.746 Y96.123
G1 X1.746 Y96.070
G1 X1.746 Y96.070
G1 X1.746 Y96.017
G1 X1.746 Y96.017
G1 X1.746 Y95.964
G1 X1.746 Y95.964
G1 X1.746 Y95.911
G1 X1.746 Y95.911
G1 X1.746 Y95.859
G1 X1.746 Y95.859
G1 X1.746 Y78.899
G1 X1.785 Y78.608
G1 X1.895 Y78.340
G1 X2.070 Y78.106
G1 X2.302 Y77.920
G1 X15.981 Y70.062
G1 X16.159 Y69.924
G1 X16.292 Y69.754
G1 X16.375 Y69.559
G1 X16.404 Y69.347
G1 X16.404 Y36.698
G1 X16.468 Y34.687
G1 X16.658 Y32.690
G1 X16.971 Y30.718
G1 X17.403 Y28.783
G1 X17.952 Y26.897
G1 X18.614 Y25.071
G1 X19.387 Y23.315
G1 X20.267 Y21.643
G1 X21.289 Y20.006
G1 X22.458 Y18.401
G1 X23.758 Y16.844
G1 X25.172 Y15.352
G1 X26.684 Y13.943
G1 X28.278 Y12.631
G1 X29.937 Y11.435
G1 X31.644 Y10.372
G1 X46.302 Y1.931
G1 X46.580 Y1.812
G1 X46.858 Y1.773
G1 X46.966 Y1.773
G1 X47.030 Y1.776
G1 X47.122 Y1.799
G1 X47.334 Y1.799
G1 X47.387 Y1.799
G1 X62.045 Y10.239
G1 X62.277 Y10.426
G1 X62.452 Y10.659
G1 X62.562 Y10.928
G1 X62.600 Y11.218
G1 X62.600 Y28.178
G1 X62.562 Y28.469
G1 X62.452 Y28.737
G1 X62.277 Y28.971
G1 X62.045 Y29.157
G1 X54.742 Y33.364
G1 X53.977 Y33.844
G1 X53.250 Y34.370
G1 X52.562 Y34.939
G1 X51.916 Y35.550
G1 X51.313 Y36.198
G1 X50.754 Y36.882
G1 X50.240 Y37.600
G1 X49.775 Y38.348
G1 X49.358 Y39.124
G1 X48.992 Y39.927
G1 X48.678 Y40.752
G1 X48.417 Y41.598
G1 X48.212 Y42.462
G1 X48.063 Y43.342
G1 X47.973 Y44.235
G1 X47.942 Y45.138
G1 X47.942 Y52.811
G1 X54.689 Y56.700
G1 X54.927 Y56.885
G1 X84.005 Y73.660
G1 X84.897 Y74.222
G1 X85.743 Y74.836
G1 X86.543 Y75.498
G1 X87.293 Y76.203
G1 X87.990 Y76.950
G1 X88.634 Y77.734
G1 X89.220 Y78.552
G1 X89.747 Y79.401
G1 X90.240 Y80.315
G1 X90.669 Y81.251
G1 X91.033 Y82.206
G1 X91.331 Y83.182
G1 X91.563 Y84.176
G1 X91.730 Y85.187
G1 X91.830 Y86.215
G1 X91.863 Y87.260
G1 X91.863 Y133.800
G1 X91.790 Y134.917
G1 X91.574 Y135.997
G1 X91.223 Y137.031
G1 X90.742 Y138.007
G1 X90.139 Y138.913
G1 X89.419 Y139.738
G1 X88.589 Y140.472
G1 X87.656 Y141.102
G1 X87.524 Y140.996
G1 X87.471 Y140.996
M5 ; Pen up

G0 X74.771 Y103.531 ; Rapid travel
F3000
M3 S1000 ; Pen down
G4 P0.05 ; Pen settle delay
G1 X74.771 Y97.578
G1 X62.362 Y104.722
G1 X62.362 Y110.675
G1 X74.771 Y103.531
G1 X74.771 Y103.531
G1 X74.771 Y103.531
M5 ; Pen up

G0 X63.526 Y112.607 ; Rapid travel
F3000
M3 S1000 ; Pen down
G4 P0.05 ; Pen settle delay
G1 X65.511 Y113.771
G1 X66.255 Y114.133
G1 X67.019 Y114.389
G1 X67.803 Y114.541
G1 X68.606 Y114.591
G1 X68.920 Y114.591
G1 X69.073 Y114.591
G1 X69.101 Y114.591
G1 X69.043 Y114.591
G1 X68.815 Y114.591
G1 X68.719 Y114.591
G1 X68.686 Y114.591
G1 X69.458 Y114.537
G1 X70.220 Y114.379
G1 X70.963 Y114.122
G1 X71.676 Y113.771
G1 X72.173 Y113.454
G1 X72.631 Y113.099
G1 X73.049 Y112.710
G1 X73.425 Y112.289
G1 X74.046 Y111.360
G1 X74.287 Y110.857
G1 X74.480 Y110.331
G1 X74.675 Y109.531
G1 X74.771 Y108.691
G1 X74.771 Y108.532
G1 X74.771 Y106.151
G1 X63.526 Y112.607
G1 X63.526 Y112.607
G1 X63.526 Y112.607
M5 ; Pen up

G0 X62.256 Y102.209 ; Rapid travel
F3000
M3 S1000 ; Pen down
G4 P0.05 ; Pen settle delay
G1 X74.771 Y95.012
G1 X74.771 Y89.191
G1 X60.801 Y97.287
G1 X61.323 Y98.462
G1 X61.737 Y99.682
G1 X62.048 Y100.941
G1 X62.256 Y102.235
G1 X62.256 Y102.235
G1 X62.256 Y102.209
M5 ; Pen up

G0 X58.314 Y97.393 ; Rapid travel
F3000
M3 S1000 ; Pen down
G4 P0.05 ; Pen settle delay
G1 X58.208 Y97.181
G1 X57.757 Y96.471
G1 X57.259 Y95.790
G1 X56.716 Y95.141
G1 X56.131 Y94.526
G1 X55.507 Y93.946
G1 X54.845 Y93.405
G1 X54.148 Y92.904
G1 X53.419 Y92.445
G1 X47.757 Y89.165
G1 X47.757 Y103.399
G1 X54.504 Y107.289
G1 X54.656 Y107.388
G1 X54.769 Y107.527
G1 X60.113 Y110.596
G1 X60.113 Y104.061
G1 X60.085 Y103.171
G1 X60.000 Y102.290
G1 X59.858 Y101.421
G1 X59.660 Y100.568
G1 X59.407 Y99.735
G1 X59.098 Y98.926
G1 X58.733 Y98.144
G1 X58.314 Y97.393
G1 X58.314 Y97.393
G1 X58.314 Y97.393
M5 ; Pen up

G0 X74.771 Y114.168 ; Rapid travel
F3000
M3 S1000 ; Pen down
G4 P0.05 ; Pen settle delay
G1 X74.315 Y114.625
G1 X73.822 Y115.044
G1 X72.734 Y115.782
G1 X72.006 Y116.144
G1 X71.256 Y116.437
G1 X70.490 Y116.660
G1 X69.718 Y116.814
G1 X69.718 Y133.720
G1 X69.679 Y134.011
G1 X69.569 Y134.279
G1 X69.394 Y134.513
G1 X69.162 Y134.699
G1 X56.224 Y142.161
G1 X61.357 Y145.124
G1 X74.771 Y137.398
G1 X74.771 Y114.194
G1 X74.771 Y114.194
G1 X74.771 Y114.168
M5 ; Pen up

G0 X53.949 Y140.838 ; Rapid travel
F3000
M3 S1000 ; Pen down
G4 P0.05 ; Pen settle delay
G1 X67.469 Y133.059
G1 X67.469 Y116.814
G1 X66.676 Y116.659
G1 X65.891 Y116.433
G1 X65.121 Y116.133
G1 X64.373 Y115.755
G1 X62.362 Y114.591
G1 X62.362 Y129.487
G1 X62.324 Y129.778
G1 X62.213 Y130.046
G1 X62.039 Y130.280
G1 X61.807 Y130.466
G1 X48.895 Y137.927
G1 X53.949 Y140.838
G1 X53.949 Y140.838
M5 ; Pen up

G0 X46.646 Y136.604 ; Rapid travel
F3000
M3 S1000 ; Pen down
G4 P0.05 ; Pen settle delay
G1 X60.113 Y128.826
G1 X60.113 Y113.215
G1 X55.060 Y110.305
G1 X55.060 Y125.227
G1 X55.021 Y125.518
G1 X54.911 Y125.786
G1 X54.736 Y126.020
G1 X54.504 Y126.206
G1 X41.540 Y133.667
G1 X46.672 Y136.631
G1 X46.672 Y136.631
G1 X46.646 Y136.604
M5 ; Pen up

G0 X39.291 Y132.345 ; Rapid travel
F3000
M3 S1000 ; Pen down
G4 P0.05 ; Pen settle delay
G1 X52.811 Y124.566
G1 X52.811 Y109.008
G1 X47.757 Y106.098
G1 X47.757 Y120.994
G1 X47.719 Y121.285
G1 X47.608 Y121.553
G1 X47.434 Y121.786
G1 X47.202 Y121.973
G1 X34.237 Y129.434
G1 X39.291 Y132.345
G1 X39.291 Y132.345
G1 X39.291 Y132.345
M5 ; Pen up

G0 X16.192 Y102.023 ; Rapid travel
F3000
M3 S1000 ; Pen down
G4 P0.05 ; Pen settle delay
G1 X16.192 Y97.499
G1 X12.277 Y99.748
G1 X16.192 Y102.023
G1 X16.192 Y102.023
G1 X16.192 Y102.023
M5 ; Pen up

G0 X10.001 Y98.478 ; Rapid travel
F3000
M3 S1000 ; Pen down
G4 P0.05 ; Pen settle delay
G1 X16.192 Y94.880
G1 X16.192 Y89.059
G1 X4.921 Y95.541
G1 X10.001 Y98.478
G1 X10.001 Y98.478
G1 X10.001 Y98.478
M5 ; Pen up

G0 X45.508 Y4.551 ; Rapid travel
F3000
M3 S1000 ; Pen down
G4 P0.05 ; Pen settle delay
G1 X32.544 Y12.012
G1 X30.978 Y12.995
G1 X29.447 Y14.106
G1 X27.970 Y15.327
G1 X26.564 Y16.639
G1 X25.248 Y18.024
G1 X24.038 Y19.465
G1 X22.954 Y20.942
G1 X22.013 Y22.437
G1 X21.200 Y23.986
G1 X20.488 Y25.612
G1 X19.880 Y27.304
G1 X19.377 Y29.051
G1 X18.983 Y30.843
G1 X18.698 Y32.669
G1 X18.526 Y34.518
G1 X18.468 Y36.380
G1 X18.468 Y70.167
G1 X18.429 Y70.458
G1 X18.319 Y70.726
G1 X18.144 Y70.960
G1 X17.912 Y71.146
G1 X3.810 Y79.243
G1 X3.810 Y93.557
G1 X16.775 Y86.095
G1 X17.045 Y85.976
G1 X17.330 Y85.937
G1 X17.615 Y85.976
G1 X17.886 Y86.095
G1 X18.118 Y86.282
G1 X18.293 Y86.515
G1 X18.403 Y86.784
G1 X18.441 Y87.074
G1 X18.441 Y119.010
G1 X30.850 Y111.866
G1 X30.850 Y78.687
G1 X30.889 Y78.396
G1 X30.999 Y78.128
G1 X31.174 Y77.895
G1 X31.406 Y77.708
G1 X45.508 Y69.612
G1 X45.508 Y55.298
G1 X32.544 Y62.759
G1 X32.273 Y62.878
G1 X31.988 Y62.918
G1 X31.703 Y62.878
G1 X31.432 Y62.759
G1 X31.201 Y62.573
G1 X31.026 Y62.339
G1 X30.915 Y62.071
G1 X30.877 Y61.780
G1 X30.877 Y36.433
G1 X30.912 Y35.382
G1 X31.017 Y34.342
G1 X31.190 Y33.318
G1 X31.428 Y32.313
G1 X31.731 Y31.328
G1 X32.096 Y30.368
G1 X32.522 Y29.435
G1 X33.007 Y28.532
G1 X33.548 Y27.662
G1 X34.145 Y26.829
G1 X34.796 Y26.034
G1 X35.498 Y25.282
G1 X36.250 Y24.575
G1 X37.050 Y23.916
G1 X37.897 Y23.308
G1 X38.788 Y22.754
G1 X45.535 Y18.865
G1 X45.535 Y4.551
G1 X45.535 Y4.551
G1 X45.508 Y4.551
M5 ; Pen up

G0 X52.864 Y7.488 ; Rapid travel
F3000
M3 S1000 ; Pen down
G4 P0.05 ; Pen settle delay
G1 X47.757 Y4.551
G1 X47.757 Y19.526
G1 X47.719 Y19.817
G1 X47.608 Y20.085
G1 X47.434 Y20.319
G1 X47.202 Y20.505
G1 X39.899 Y24.739
G1 X39.134 Y25.214
G1 X38.407 Y25.735
G1 X37.719 Y26.299
G1 X37.073 Y26.905
G1 X36.470 Y27.549
G1 X35.911 Y28.229
G1 X35.397 Y28.942
G1 X34.932 Y29.686
G1 X34.515 Y30.459
G1 X34.149 Y31.258
G1 X33.834 Y32.081
G1 X33.574 Y32.924
G1 X33.369 Y33.786
G1 X33.220 Y34.665
G1 X33.130 Y35.556
G1 X33.099 Y36.460
G1 X33.099 Y59.875
G1 X38.206 Y56.938
G1 X38.206 Y40.693
G1 X38.241 Y39.641
G1 X38.346 Y38.602
G1 X38.519 Y37.578
G1 X38.757 Y36.572
G1 X39.060 Y35.588
G1 X39.425 Y34.628
G1 X39.851 Y33.695
G1 X40.336 Y32.792
G1 X40.877 Y31.922
G1 X41.474 Y31.089
G1 X42.125 Y30.294
G1 X42.827 Y29.542
G1 X43.579 Y28.835
G1 X44.379 Y28.176
G1 X45.226 Y27.568
G1 X46.117 Y27.014
G1 X52.864 Y23.125
G1 X52.864 Y7.514
G1 X52.864 Y7.514
G1 X52.864 Y7.488
M5 ; Pen up

G0 X53.419 Y31.221 ; Rapid travel
F3000
M3 S1000 ; Pen down
G4 P0.05 ; Pen settle delay
G1 X60.166 Y27.331
G1 X60.166 Y11.774
G1 X55.113 Y8.864
G1 X55.113 Y23.786
G1 X55.074 Y24.077
G1 X54.964 Y24.345
G1 X54.789 Y24.579
G1 X54.557 Y24.765
G1 X47.255 Y28.998
G1 X46.489 Y29.474
G1 X45.762 Y29.995
G1 X45.075 Y30.559
G1 X44.428 Y31.165
G1 X43.825 Y31.808
G1 X43.266 Y32.488
G1 X42.753 Y33.202
G1 X42.287 Y33.946
G1 X41.870 Y34.719
G1 X41.504 Y35.518
G1 X41.190 Y36.340
G1 X40.929 Y37.184
G1 X40.724 Y38.046
G1 X40.576 Y38.924
G1 X40.485 Y39.816
G1 X40.455 Y40.719
G1 X40.455 Y55.642
G1 X45.508 Y52.731
G1 X45.508 Y45.006
G1 X45.544 Y43.949
G1 X45.649 Y42.905
G1 X45.821 Y41.876
G1 X46.060 Y40.866
G1 X46.363 Y39.877
G1 X46.728 Y38.912
G1 X47.154 Y37.975
G1 X47.638 Y37.068
G1 X48.180 Y36.195
G1 X48.777 Y35.358
G1 X49.427 Y34.561
G1 X50.129 Y33.806
G1 X50.882 Y33.097
G1 X51.682 Y32.437
G1 X52.528 Y31.828
G1 X53.419 Y31.274
G1 X53.419 Y31.274
G1 X53.419 Y31.221
M5 ; Pen up

G0 X52.811 Y58.288 ; Rapid travel
F3000
M3 S1000 ; Pen down
G4 P0.05 ; Pen settle delay
G1 X47.757 Y55.377
G1 X47.757 Y70.300
G1 X47.719 Y70.590
G1 X47.608 Y70.859
G1 X47.434 Y71.092
G1 X47.202 Y71.279
G1 X33.099 Y79.375
G1 X33.099 Y112.554
G1 X33.061 Y112.844
G1 X32.951 Y113.113
G1 X32.776 Y113.346
G1 X32.544 Y113.533
G1 X19.579 Y120.994
G1 X24.633 Y123.904
G1 X38.153 Y116.126
G1 X38.153 Y82.947
G1 X38.191 Y82.656
G1 X38.302 Y82.388
G1 X38.477 Y82.154
G1 X38.709 Y81.968
G1 X52.811 Y73.872
G1 X52.811 Y58.288
G1 X52.811 Y58.288
G1 X52.811 Y58.288
M5 ; Pen up

G0 X60.166 Y62.521 ; Rapid travel
F3000
M3 S1000 ; Pen down
G4 P0.05 ; Pen settle delay
G1 X55.060 Y59.584
G1 X55.060 Y74.533
G1 X55.021 Y74.824
G1 X54.911 Y75.092
G1 X54.736 Y75.326
G1 X54.504 Y75.512
G1 X40.402 Y83.608
G1 X40.402 Y116.787
G1 X40.363 Y117.078
G1 X40.253 Y117.346
G1 X40.078 Y117.580
G1 X39.846 Y117.766
G1 X26.882 Y125.227
G1 X31.962 Y128.164
G1 X45.508 Y120.359
G1 X45.508 Y104.484
G1 X45.455 Y104.140
G1 X45.455 Y87.207
G1 X45.548 Y86.757
G1 X45.799 Y86.386
G1 X45.799 Y86.386
G1 X45.840 Y86.363
G1 X45.958 Y86.296
G1 X46.148 Y86.187
G1 X46.405 Y86.040
G1 X46.725 Y85.857
G1 X47.101 Y85.642
G1 X47.529 Y85.397
G1 X48.003 Y85.126
G1 X49.070 Y84.515
G1 X50.261 Y83.833
G1 X51.535 Y83.104
G1 X52.851 Y82.352
G1 X54.166 Y81.599
G1 X55.440 Y80.870
G1 X56.631 Y80.188
G1 X57.698 Y79.578
G1 X58.172 Y79.306
G1 X58.600 Y79.061
G1 X58.976 Y78.846
G1 X59.296 Y78.663
G1 X59.553 Y78.516
G1 X59.743 Y78.407
G1 X59.861 Y78.340
G1 X59.902 Y78.317
G1 X59.902 Y62.706
G1 X60.166 Y62.521
G1 X60.166 Y62.521
M5 ; Pen up

G0 X67.469 Y66.701 ; Rapid travel
F3000
M3 S1000 ; Pen down
G4 P0.05 ; Pen settle delay
G1 X62.415 Y63.791
G1 X62.415 Y78.793
G1 X62.377 Y79.084
G1 X62.266 Y79.352
G1 X62.092 Y79.585
G1 X61.860 Y79.772
G1 X48.895 Y87.180
G1 X54.001 Y90.144
G1 X67.469 Y82.391
G1 X67.469 Y66.728
G1 X67.469 Y66.701
M5 ; Pen up

G0 X69.215 Y83.979 ; Rapid travel
F3000
M3 S1000 ; Pen down
G4 P0.05 ; Pen settle delay
G1 X56.092 Y91.519
G1 X57.107 Y92.348
G1 X58.046 Y93.246
G1 X58.901 Y94.213
G1 X59.664 Y95.250
G1 X74.771 Y86.492
G1 X74.771 Y70.908
G1 X69.718 Y67.998
G1 X69.718 Y82.629
G1 X69.704 Y82.982
G1 X69.650 Y83.271
G1 X69.570 Y83.501
G1 X69.476 Y83.678
G1 X69.297 Y83.891
G1 X69.215 Y83.952
G1 X69.215 Y83.952
G1 X69.215 Y83.979
M5 ; Pen up

G0 X77.020 Y87.180 ; Rapid travel
F3000
M3 S1000 ; Pen down
G4 P0.05 ; Pen settle delay
G1 X77.020 Y87.180
G1 X77.020 Y108.506
G1 X77.020 Y108.506
G1 X77.020 Y138.007
G1 X77.020 Y138.033
G1 X77.020 Y138.165
G1 X77.020 Y138.271
G1 X76.994 Y138.377
G1 X76.967 Y138.483
G1 X76.914 Y138.589
G1 X76.861 Y138.668
G1 X76.782 Y138.747
G1 X76.703 Y138.827
G1 X76.623 Y138.880
G1 X76.517 Y138.959
G1 X76.491 Y138.959
G1 X63.632 Y146.341
G1 X65.537 Y147.426
G1 X66.280 Y147.790
G1 X67.052 Y148.051
G1 X67.843 Y148.207
G1 X68.643 Y148.259
G1 X69.442 Y148.207
G1 X70.229 Y148.051
G1 X70.995 Y147.790
G1 X71.729 Y147.426
G1 X82.127 Y141.446
G1 X82.180 Y75.089
G1 X77.073 Y72.152
G1 X77.073 Y87.101
G1 X77.073 Y87.101
G1 X77.073 Y87.127
G1 X77.020 Y87.180
M5 ; Pen up

G0 X89.429 Y87.154 ; Rapid travel
F3000
M3 S1000 ; Pen down
G4 P0.05 ; Pen settle delay
G1 X89.401 Y86.257
G1 X89.315 Y85.374
G1 X89.174 Y84.505
G1 X88.976 Y83.651
G1 X88.722 Y82.814
G1 X88.413 Y81.993
G1 X88.049 Y81.191
G1 X87.630 Y80.407
G1 X86.962 Y79.366
G1 X86.191 Y78.389
G1 X85.327 Y77.482
G1 X84.376 Y76.650
G1 X84.323 Y140.203
G1 X86.334 Y139.039
G1 X87.021 Y138.572
G1 X87.632 Y138.032
G1 X88.162 Y137.427
G1 X88.606 Y136.763
G1 X88.959 Y136.050
G1 X89.217 Y135.296
G1 X89.375 Y134.507
G1 X89.429 Y133.694
G1 X89.429 Y87.154
G1 X89.429 Y87.154
G1 X89.429 Y87.154
M5 ; Pen up

; -- End of job -----------------------------------------------
M5 ; Pen up - safe